;FLAVOR:Marlin
;TIME:27836
;Filament used: 26.0472m
;Layer height: 0.2
;MINX:24
;MINY:60.07
;MINZ:0.2
;MAXX:193.93
;MAXY:159.946
;MAXZ:40
;TARGET_MACHINE.NAME:Creality Ender-3 Pro
;Generated with Cura_SteamEngine 5.6.0
M82 ;absolute extrusion mode
; Ender 3 Custom Start G-code
G92 E0 ; Reset Extruder
G28 ; Home all axes
G1 Z5.0 F3000 ; Move Z Axis up a bit during heating to not damage bed
M104 S175 ; Start heating up the nozzle most of the way
M190 S60 ; Start heating the bed, wait until target temperature reached
M109 S200 ; Finish heating the nozzle
G1 Z2.0 F3000 ; Move Z Axis up little to prevent scratching of Heat Bed
G1 X0.1 Y20 Z0.3 F5000.0 ; Move to start position
G1 X0.1 Y200.0 Z0.3 F1500.0 E15 ; Draw the first line
G1 X0.4 Y200.0 Z0.3 F5000.0 ; Move to side a little
G1 X0.4 Y20 Z0.3 F1500.0 E30 ; Draw the second line
G92 E0 ; Reset Extruder
G1 Z2.0 F3000 ; Move Z Axis up little to prevent scratching of Heat Bed
G1 X5 Y20 Z0.3 F5000.0 ; Move over to prevent blob squish
G92 E0
G92 E0
G1 F1500 E-6.5
;LAYER_COUNT:200
;LAYER:0
M107
G0 F6000 X29.835 Y61.373 Z0.2
;TYPE:SKIRT
G1 F1500 E0
G1 F1200 X30.649 Y60.982 E0.03004
G1 X31.626 Y60.614 E0.06476
G1 X32.53 Y60.364 E0.09595
G1 X33.532 Y60.18 E0.12984
G1 X34.681 Y60.085 E0.16818
G1 X35.33 Y60.071 E0.18978
G1 X180.303 Y60.07 E5.0116
G1 X181.183 Y60.083 E5.04087
G1 X182.191 Y60.146 E5.07446
G1 X182.653 Y60.198 E5.08992
G1 X183.614 Y60.351 E5.12229
G1 X184.522 Y60.577 E5.15341
G1 X185.48 Y60.896 E5.18699
G1 X186.319 Y61.23 E5.21703
G1 X187.429 Y61.805 E5.25861
G1 X187.824 Y62.04 E5.2739
G1 X188.638 Y62.575 E5.30629
G1 X189.347 Y63.134 E5.33632
G1 X190.203 Y63.95 E5.37566
G1 X190.624 Y64.398 E5.3961
G1 X191.256 Y65.138 E5.42847
G1 X191.826 Y65.938 E5.46114
G1 X192.389 Y66.916 E5.49868
G1 X192.607 Y67.349 E5.5148
G1 X192.989 Y68.203 E5.54592
G1 X193.275 Y69.01 E5.57439
G1 X193.397 Y69.406 E5.58817
G1 X193.642 Y70.355 E5.62077
G1 X193.823 Y71.501 E5.65936
G1 X193.864 Y71.909 E5.673
G1 X193.915 Y72.684 E5.69883
G1 X193.927 Y73.241 E5.71736
G1 X193.93 Y146.304 E8.14745
G1 X193.917 Y147.182 E8.17665
G1 X193.862 Y148.122 E8.20797
G1 X193.818 Y148.544 E8.22208
G1 X193.685 Y149.438 E8.25214
G1 X193.381 Y150.649 E8.29367
G1 X193.249 Y151.067 E8.30825
G1 X192.928 Y151.947 E8.33941
G1 X192.587 Y152.691 E8.36663
G1 X192.395 Y153.072 E8.38082
G1 X191.934 Y153.889 E8.41202
G1 X191.36 Y154.727 E8.4458
G1 X190.683 Y155.537 E8.48091
G1 X190.247 Y156.006 E8.50221
G1 X189.552 Y156.687 E8.53458
G1 X188.794 Y157.309 E8.56719
G1 X187.866 Y157.932 E8.60436
G1 X187.46 Y158.175 E8.6201
G1 X186.666 Y158.605 E8.65013
G1 X185.488 Y159.099 E8.69262
G1 X185.034 Y159.259 E8.70863
G1 X184.102 Y159.539 E8.741
G1 X183.187 Y159.729 E8.77208
G1 X182.247 Y159.849 E8.8036
G1 X181.102 Y159.92 E8.84175
G1 X179.505 Y159.936 E8.89487
G1 X131.643 Y159.937 E10.48677
G1 X130.573 Y159.946 E10.52236
G1 X130.329 Y159.936 E10.53048
G1 X35.545 Y159.928 E13.68301
G1 X34.816 Y159.916 E13.70726
G1 X33.842 Y159.857 E13.73972
G1 X32.881 Y159.71 E13.77205
G1 X31.935 Y159.479 E13.80444
G1 X31.012 Y159.166 E13.83686
G1 X30.122 Y158.772 E13.86923
G1 X29.269 Y158.301 E13.90164
G1 X28.462 Y157.756 E13.93402
G1 X27.707 Y157.143 E13.96637
G1 X27.008 Y156.465 E13.99876
G1 X26.371 Y155.727 E14.03118
G1 X25.802 Y154.937 E14.06357
G1 X25.339 Y154.161 E14.09362
G1 X24.887 Y153.22 E14.12834
G1 X24.545 Y152.307 E14.16077
G1 X24.295 Y151.403 E14.19196
G1 X24.111 Y150.403 E14.22578
G1 X24.016 Y149.286 E14.26307
G1 X24 Y148.578 E14.28662
G1 X24.001 Y71.592 E16.84719
G1 X24.013 Y70.882 E16.87081
G1 X24.072 Y69.908 E16.90326
G1 X24.219 Y68.945 E16.93566
G1 X24.451 Y68 E16.96803
G1 X24.765 Y67.078 E17.00042
G1 X25.159 Y66.188 E17.03279
G1 X25.63 Y65.335 E17.0652
G1 X26.175 Y64.528 E17.09759
G1 X26.765 Y63.799 E17.12878
G1 X27.467 Y63.074 E17.16235
G1 X28.177 Y62.46 E17.19357
G1 X28.996 Y61.87 E17.22714
G1 X29.835 Y61.373 E17.25957
G0 F6000 X30.008 Y61.734
G1 F1200 X30.822 Y61.343 E17.28961
G1 X31.733 Y61 E17.32199
G1 X32.637 Y60.75 E17.35318
G1 X33.565 Y60.579 E17.38457
G1 X34.714 Y60.484 E17.42291
G1 X35.33 Y60.471 E17.44341
G1 X180.297 Y60.47 E22.26503
G1 X181.158 Y60.482 E22.29367
G1 X182.146 Y60.543 E22.32659
G1 X182.591 Y60.593 E22.34149
G1 X183.517 Y60.739 E22.37266
G1 X184.425 Y60.965 E22.40379
G1 X185.332 Y61.268 E22.43559
G1 X186.171 Y61.602 E22.46563
G1 X187.225 Y62.149 E22.50512
G1 X187.605 Y62.374 E22.51981
G1 X188.39 Y62.889 E22.55104
G1 X189.099 Y63.448 E22.58107
G1 X189.912 Y64.224 E22.61845
G1 X190.32 Y64.658 E22.63826
G1 X190.931 Y65.371 E22.66949
G1 X191.479 Y66.138 E22.70084
G1 X192.042 Y67.116 E22.73838
G1 X192.242 Y67.513 E22.75316
G1 X192.612 Y68.337 E22.7832
G1 X192.893 Y69.128 E22.81112
G1 X193.01 Y69.507 E22.82432
G1 X193.247 Y70.418 E22.85563
G1 X193.425 Y71.542 E22.89348
G1 X193.465 Y71.935 E22.90661
G1 X193.515 Y72.693 E22.93188
G1 X193.527 Y73.241 E22.95011
G1 X193.53 Y146.298 E25.38
G1 X193.518 Y147.159 E25.40864
G1 X193.464 Y148.081 E25.43936
G1 X193.422 Y148.485 E25.45286
G1 X193.289 Y149.379 E25.48293
G1 X192.993 Y150.551 E25.52313
G1 X192.873 Y150.93 E25.53635
G1 X192.552 Y151.81 E25.56751
G1 X192.23 Y152.511 E25.59317
G1 X192.046 Y152.876 E25.60676
G1 X191.604 Y153.663 E25.63678
G1 X191.053 Y154.47 E25.66928
G1 X190.376 Y155.28 E25.7044
G1 X189.967 Y155.721 E25.7244
G1 X189.298 Y156.378 E25.75559
G1 X188.571 Y156.977 E25.78692
G1 X187.661 Y157.589 E25.82339
G1 X187.27 Y157.823 E25.83855
G1 X186.476 Y158.253 E25.86858
G1 X185.355 Y158.722 E25.909
G1 X184.918 Y158.876 E25.92441
G1 X184.02 Y159.147 E25.95561
G1 X183.136 Y159.332 E25.98564
G1 X182.196 Y159.452 E26.01716
G1 X181.098 Y159.52 E26.05375
G1 X179.505 Y159.536 E26.10674
G1 X131.64 Y159.537 E27.69873
G1 X130.589 Y159.546 E27.73369
G1 X130.345 Y159.536 E27.74181
G1 X35.551 Y159.528 E30.89468
G1 X34.84 Y159.517 E30.91833
G1 X33.902 Y159.461 E30.94958
G1 X32.975 Y159.321 E30.98076
G1 X32.063 Y159.1 E31.01197
G1 X31.173 Y158.8 E31.04321
G1 X30.315 Y158.422 E31.0744
G1 X29.492 Y157.969 E31.10564
G1 X28.714 Y157.445 E31.13684
G1 X27.985 Y156.855 E31.16803
G1 X27.31 Y156.203 E31.19925
G1 X26.695 Y155.493 E31.23049
G1 X26.146 Y154.732 E31.2617
G1 X25.683 Y153.956 E31.29175
G1 X25.261 Y153.079 E31.32412
G1 X24.931 Y152.2 E31.35535
G1 X24.681 Y151.296 E31.38655
G1 X24.51 Y150.369 E31.4179
G1 X24.415 Y149.252 E31.45518
G1 X24.4 Y148.578 E31.47761
G1 X24.401 Y71.598 E34.03797
G1 X24.412 Y70.906 E34.06099
G1 X24.468 Y69.968 E34.09225
G1 X24.608 Y69.04 E34.12346
G1 X24.83 Y68.128 E34.15468
G1 X25.131 Y67.239 E34.1859
G1 X25.509 Y66.381 E34.21708
G1 X25.962 Y65.558 E34.24833
G1 X26.486 Y64.78 E34.27952
G1 X27.076 Y64.051 E34.31072
G1 X27.729 Y63.377 E34.34193
G1 X28.439 Y62.763 E34.37315
G1 X29.2 Y62.214 E34.40436
G1 X30.008 Y61.734 E34.43562
G0 F6000 X30.181 Y62.095
G1 F1200 X30.995 Y61.704 E34.46565
G1 X31.84 Y61.385 E34.49569
G1 X32.71 Y61.143 E34.52573
G1 X33.598 Y60.978 E34.55577
G1 X34.723 Y60.884 E34.59332
G1 X35.33 Y60.871 E34.61351
G1 X180.292 Y60.87 E39.43497
G1 X181.133 Y60.881 E39.46294
G1 X182.102 Y60.941 E39.49523
G1 X182.529 Y60.988 E39.50952
G1 X183.421 Y61.127 E39.53955
G1 X184.298 Y61.344 E39.56959
G1 X185.184 Y61.64 E39.60066
G1 X186.023 Y61.974 E39.6307
G1 X187.021 Y62.493 E39.66811
G1 X187.386 Y62.709 E39.68222
G1 X188.142 Y63.203 E39.71226
G1 X188.851 Y63.762 E39.74229
G1 X189.621 Y64.498 E39.77771
G1 X190.017 Y64.919 E39.79694
G1 X190.606 Y65.604 E39.82698
G1 X191.132 Y66.338 E39.85702
G1 X191.695 Y67.316 E39.89455
G1 X191.877 Y67.677 E39.908
G1 X192.247 Y68.501 E39.93804
G1 X192.511 Y69.247 E39.96436
G1 X192.623 Y69.608 E39.97693
G1 X192.852 Y70.481 E40.00695
G1 X193.027 Y71.583 E40.04406
G1 X193.066 Y71.961 E40.0567
G1 X193.115 Y72.702 E40.0814
G1 X193.127 Y73.241 E40.09933
G1 X193.13 Y146.293 E42.52905
G1 X193.119 Y147.136 E42.55709
G1 X193.066 Y148.04 E42.58721
G1 X193.026 Y148.426 E42.60012
G1 X192.893 Y149.32 E42.63018
G1 X192.611 Y150.431 E42.6683
G1 X192.497 Y150.794 E42.68096
G1 X192.189 Y151.643 E42.711
G1 X191.873 Y152.331 E42.73618
G1 X191.697 Y152.68 E42.74918
G1 X191.255 Y153.467 E42.7792
G1 X190.746 Y154.213 E42.80924
G1 X190.069 Y155.023 E42.84435
G1 X189.686 Y155.436 E42.86308
G1 X189.043 Y156.07 E42.89312
G1 X188.347 Y156.645 E42.92315
G1 X187.455 Y157.246 E42.95892
G1 X187.08 Y157.471 E42.97346
G1 X186.286 Y157.901 E43.0035
G1 X185.222 Y158.345 E43.04184
G1 X184.802 Y158.493 E43.05665
G1 X183.938 Y158.755 E43.08668
G1 X183.054 Y158.94 E43.11672
G1 X182.146 Y159.055 E43.14716
G1 X181.094 Y159.12 E43.18222
G1 X179.505 Y159.136 E43.23507
G1 X131.637 Y159.137 E44.82717
G1 X130.605 Y159.146 E44.8615
G1 X130.361 Y159.136 E44.86962
G1 X35.557 Y159.128 E48.02281
G1 X34.863 Y159.118 E48.0459
G1 X33.961 Y159.065 E48.07595
G1 X33.068 Y158.932 E48.10598
G1 X32.19 Y158.721 E48.13601
G1 X31.334 Y158.434 E48.16604
G1 X30.507 Y158.071 E48.19608
G1 X29.715 Y157.637 E48.22612
G1 X28.965 Y157.134 E48.25615
G1 X28.262 Y156.567 E48.28619
G1 X27.612 Y155.941 E48.31621
G1 X27.019 Y155.259 E48.34627
G1 X26.49 Y154.527 E48.3763
G1 X26.027 Y153.751 E48.40636
G1 X25.635 Y152.938 E48.43638
G1 X25.316 Y152.093 E48.46642
G1 X25.074 Y151.223 E48.49645
G1 X24.909 Y150.335 E48.52649
G1 X24.814 Y149.218 E48.56378
G1 X24.8 Y148.578 E48.58507
G1 X24.801 Y71.604 E51.14524
G1 X24.811 Y70.929 E51.16769
G1 X24.864 Y70.027 E51.19774
G1 X24.997 Y69.134 E51.22777
G1 X25.209 Y68.256 E51.25781
G1 X25.497 Y67.4 E51.28785
G1 X25.86 Y66.573 E51.31789
G1 X26.294 Y65.781 E51.34793
G1 X26.797 Y65.031 E51.37797
G1 X27.364 Y64.329 E51.40798
G1 X27.991 Y63.679 E51.43802
G1 X28.674 Y63.087 E51.46808
G1 X29.405 Y62.558 E51.49809
G1 X30.181 Y62.095 E51.52815
G1 F1500 E45.02815
;MESH:Try3PiBracket.stl
G0 F6000 X80.364 Y94.115
G0 X83.285 Y97.608
;TYPE:WALL-INNER
G1 F1500 E51.52815
G1 F1200 X82.432 Y97.558 E51.55657
G1 X81.777 Y97.3 E51.57998
G1 X81.195 Y96.902 E51.60343
G1 X80.767 Y96.341 E51.6269
G1 X80.476 Y95.71 E51.65001
G1 X80.381 Y94.872 E51.67806
G1 X80.534 Y94.171 E51.70193
G1 X80.819 Y93.544 E51.72483
G1 X81.303 Y93.027 E51.74839
G1 X81.879 Y92.63 E51.77166
G1 X82.718 Y92.393 E51.80065
G1 X83.567 Y92.443 E51.82894
G1 X84.227 Y92.703 E51.85253
G1 X84.795 Y93.092 E51.87543
G1 X85.228 Y93.658 E51.89913
G1 X85.525 Y94.288 E51.9223
G1 X85.619 Y95.134 E51.95061
G1 X85.457 Y95.849 E51.97499
G1 X85.161 Y96.484 E51.9983
G1 X84.689 Y96.981 E52.02109
G1 X84.115 Y97.373 E52.04421
G1 X83.285 Y97.608 E52.0729
G1 F1500 E45.5729
G0 F6000 X83.748 Y97.583
G0 X85.327 Y96.571
G0 X115.616 Y96.44
G0 X117.43 Y97.558
G1 F1500 E52.0729
G1 F1200 X116.768 Y97.291 E52.09664
G1 X116.198 Y96.906 E52.11952
G1 X115.786 Y96.365 E52.14214
G1 X115.477 Y95.707 E52.16632
G1 X115.38 Y94.867 E52.19444
G1 X115.541 Y94.156 E52.21869
G1 X115.82 Y93.543 E52.24109
G1 X116.303 Y93.027 E52.2646
G1 X116.879 Y92.63 E52.28786
G1 X117.718 Y92.392 E52.31687
G1 X118.564 Y92.443 E52.34506
G1 X119.221 Y92.699 E52.36851
G1 X119.794 Y93.089 E52.39157
G1 X120.228 Y93.651 E52.41518
G1 X120.528 Y94.303 E52.43905
G1 X120.619 Y95.135 E52.46689
G1 X120.468 Y95.826 E52.49042
G1 X120.172 Y96.474 E52.51411
G1 X119.662 Y96.999 E52.53845
G1 X119.116 Y97.372 E52.56045
G1 X118.289 Y97.608 E52.58905
G1 X117.43 Y97.558 E52.61767
G1 F1500 E46.11767
G0 F6000 X118.272 Y97.445
G0 X119.036 Y97.23
G0 X119.582 Y96.859
G0 X119.952 Y96.467
G0 X120.803 Y95.142
G0 X129.242 Y90.984
G0 X130.673 Y91.575
G1 F1500 E52.61767
G1 F1200 X130.245 Y91.459 E52.63242
G1 X129.82 Y91.244 E52.64826
G1 X129.392 Y90.878 E52.66699
G1 X129.087 Y90.37 E52.6867
G1 X128.951 Y89.963 E52.70097
G1 X128.895 Y89.501 E52.71645
G1 X128.946 Y89.045 E52.73171
G1 X129.09 Y88.626 E52.74645
G1 X129.384 Y88.124 E52.7658
G1 X129.917 Y87.68 E52.78887
G1 X130.438 Y87.472 E52.80753
G1 X130.889 Y87.401 E52.82271
G1 X131.342 Y87.427 E52.8378
G1 X131.778 Y87.55 E52.85287
G1 X132.177 Y87.758 E52.86784
G1 X132.611 Y88.122 E52.88668
G1 X132.897 Y88.595 E52.90506
G1 X133.055 Y89.051 E52.92111
G1 X133.1 Y89.516 E52.93665
G1 X133.055 Y89.95 E52.95116
G1 X132.911 Y90.38 E52.96625
G1 X132.615 Y90.873 E52.98537
G1 X132.087 Y91.318 E53.00834
G1 X131.59 Y91.516 E53.02613
G1 X131.127 Y91.598 E53.04177
G1 X130.673 Y91.575 E53.05689
G1 F1500 E46.55689
G0 F6000 X130.667 Y91.678
G0 X131.051 Y91.774
G0 X129.806 Y145.513
G0 X128.923 Y147.285
G1 F1500 E53.05689
G1 F1200 X128.966 Y146.984 E53.067
G1 X129.092 Y146.613 E53.08004
G1 X129.378 Y146.142 E53.09836
G1 X129.902 Y145.687 E53.12144
G1 X130.439 Y145.472 E53.14068
G1 X130.874 Y145.402 E53.15534
G1 X131.324 Y145.421 E53.17032
G1 X131.776 Y145.546 E53.18592
G1 X132.186 Y145.764 E53.20136
G1 X132.526 Y146.05 E53.21614
G1 X132.801 Y146.414 E53.23131
G1 X132.982 Y146.795 E53.24534
G1 X133.105 Y147.285 E53.26214
G1 X177.923 Y147.285 E54.7528
G1 X177.966 Y146.984 E54.76291
G1 X178.092 Y146.613 E54.77594
G1 X178.378 Y146.142 E54.79427
G1 X178.903 Y145.686 E54.8174
G1 X179.432 Y145.474 E54.83635
G1 X179.894 Y145.397 E54.85193
G1 X180.339 Y145.424 E54.86676
G1 X180.783 Y145.548 E54.88209
G1 X181.118 Y145.724 E54.89468
G1 X181.281 Y145.842 E54.90137
G1 X181.281 Y91.155 E56.72027
G1 X181.003 Y91.351 E56.73158
G1 X180.563 Y91.527 E56.74734
G1 X180.111 Y91.602 E56.76258
G1 X179.662 Y91.576 E56.77754
G1 X179.215 Y91.451 E56.79298
G1 X178.818 Y91.238 E56.80796
G1 X178.384 Y90.87 E56.82689
G1 X178.094 Y90.392 E56.84548
G1 X177.955 Y89.978 E56.86001
G1 X177.895 Y89.493 E56.87626
G1 X177.956 Y89.02 E56.89213
G1 X178.1 Y88.605 E56.90674
G1 X178.379 Y88.136 E56.92489
G1 X178.905 Y87.685 E56.94793
G1 X179.432 Y87.474 E56.96681
G1 X179.888 Y87.398 E56.98219
G1 X180.339 Y87.424 E56.99721
G1 X180.779 Y87.547 E57.01241
G1 X181.119 Y87.726 E57.02519
G1 X181.281 Y87.845 E57.03187
G1 X181.28 Y73.08 E57.52296
G1 X181.232 Y72.899 E57.52919
G1 X181.086 Y72.75 E57.53613
G1 X180.941 Y72.719 E57.54106
G1 X35.601 Y72.72 E62.37509
G1 X35.601 Y147.28 E64.85496
G1 X128.923 Y147.285 E67.95886
G0 F6000 X129.291 Y147.685
;TYPE:WALL-OUTER
G1 F1200 X129.345 Y147.112 E67.97801
G1 X129.466 Y146.768 E67.99014
G1 X129.696 Y146.39 E68.00485
G1 X130.114 Y146.032 E68.02316
G1 X130.558 Y145.858 E68.03902
G1 X130.934 Y145.801 E68.05167
G1 X131.292 Y145.826 E68.0636
G1 X131.639 Y145.925 E68.0756
G1 X131.944 Y146.084 E68.08704
G1 X132.249 Y146.347 E68.10044
G1 X132.465 Y146.639 E68.11252
G1 X132.608 Y146.95 E68.1239
G1 X132.679 Y147.251 E68.13419
G1 X132.688 Y147.685 E68.14863
G1 X178.291 Y147.685 E69.66539
G1 X178.345 Y147.112 E69.68453
G1 X178.466 Y146.768 E69.69666
G1 X178.696 Y146.39 E69.71138
G1 X179.114 Y146.032 E69.72968
G1 X179.565 Y145.857 E69.74577
G1 X179.889 Y145.803 E69.7567
G1 X180.292 Y145.826 E69.77012
G1 X180.649 Y145.93 E69.78249
G1 X180.97 Y146.103 E69.79462
G1 X181.25 Y146.348 E69.80699
G1 X181.468 Y146.641 E69.81914
G1 X181.659 Y147.061 E69.83449
G1 X181.681 Y146.969 E69.83763
G1 X181.681 Y90.401 E71.71909
G1 F1162.2 X181.668 Y89.939 E71.73496
G1 X181.446 Y90.389 E71.7522
G1 F1200 X181.216 Y90.687 E71.76472
G1 X180.885 Y90.968 E71.77916
G1 X180.435 Y91.143 E71.79522
G1 X180.111 Y91.197 E71.80614
G1 X179.708 Y91.174 E71.81957
G1 X179.351 Y91.07 E71.83193
G1 X179.046 Y90.909 E71.84341
G1 X178.707 Y90.621 E71.8582
G1 X178.458 Y90.22 E71.8739
G1 X178.341 Y89.875 E71.88602
G1 X178.3 Y89.505 E71.8984
G1 X178.339 Y89.136 E71.91074
G1 X178.458 Y88.783 E71.92313
G1 X178.693 Y88.388 E71.93842
G1 X179.116 Y88.031 E71.95683
G1 X179.565 Y87.857 E71.97284
G1 X179.889 Y87.803 E71.98377
G1 X180.292 Y87.826 E71.99719
G1 X180.649 Y87.93 E72.00956
G1 X180.971 Y88.105 E72.02175
G1 X181.306 Y88.391 E72.0364
G1 X181.532 Y88.764 E72.05091
G1 F1173.6 X181.672 Y89.155 E72.06503
G1 X181.681 Y88.783 E72.07768
G1 F1200 X181.68 Y73.029 E72.60166
G1 X181.592 Y72.695 E72.61315
G1 X181.287 Y72.384 E72.62764
G1 X180.983 Y72.319 E72.63798
G1 X35.201 Y72.32 E77.48671
G1 X35.201 Y147.68 E79.99319
G1 X129.291 Y147.685 E83.12264
G1 F1500 E76.62264
G0 F6000 X129.042 Y147.413
G0 X129.238 Y146.685
G0 X129.453 Y146.388
G0 X129.806 Y145.513
G0 X118.321 Y97.786
G0 X117.527 Y97.163
G1 F1500 E83.12264
G1 F1200 X116.96 Y96.94 E83.1429
G1 X116.477 Y96.609 E83.16238
G1 X116.112 Y96.132 E83.18236
