;FLAVOR:Marlin
;TIME:32800
;Filament used: 30.3684m
;Layer height: 0.2
;MINX:35.5
;MINY:0
;MINZ:0.2
;MAXX:184.5
;MAXY:220
;MAXZ:14
;TARGET_MACHINE.NAME:Creality Ender-3 Pro
;Generated with Cura_SteamEngine 5.6.0
M82 ;absolute extrusion mode
; Ender 3 Custom Start G-code
G92 E0 ; Reset Extruder
G28 ; Home all axes
G1 Z5.0 F3000 ; Move Z Axis up a bit during heating to not damage bed
M104 S175 ; Start heating up the nozzle most of the way
M190 S60 ; Start heating the bed, wait until target temperature reached
M109 S200 ; Finish heating the nozzle
G1 Z2.0 F3000 ; Move Z Axis up little to prevent scratching of Heat Bed
G1 X0.1 Y20 Z0.3 F5000.0 ; Move to start position
G1 X0.1 Y200.0 Z0.3 F1500.0 E15 ; Draw the first line
G1 X0.4 Y200.0 Z0.3 F5000.0 ; Move to side a little
G1 X0.4 Y20 Z0.3 F1500.0 E30 ; Draw the second line
G92 E0 ; Reset Extruder
G1 Z2.0 F3000 ; Move Z Axis up little to prevent scratching of Heat Bed
G1 X5 Y20 Z0.3 F5000.0 ; Move over to prevent blob squish
G92 E0
G92 E0
G1 F1500 E-6.5
;LAYER_COUNT:70
;LAYER:0
M107
G0 F6000 X43.61 Y0.00 Z0.2
;TYPE:SKIRT
G1 F1500 E0
G1 F1200 X42.945 Y0.731 E0.03287
G1 X42.635 Y1.091 E0.04867
G1 X42.106 Y1.731 E0.07629
G1 X41.318 Y2.759 E0.11937
G1 X41.046 Y3.136 E0.13483
G1 X40.574 Y3.82 E0.16247
G1 X40.314 Y4.214 E0.17817
G1 X39.871 Y4.922 E0.20595
G1 X39.217 Y6.055 E0.24946
G1 X38.99 Y6.472 E0.26525
G1 X38.599 Y7.239 E0.29389
G1 X38.399 Y7.652 E0.30915
G1 X38.048 Y8.418 E0.33717
G1 X37.859 Y8.857 E0.35307
G1 X37.574 Y9.579 E0.37889
G1 X37.085 Y10.921 E0.42639
G1 X36.912 Y11.438 E0.44452
G1 X36.71 Y12.097 E0.46745
G1 X36.377 Y13.331 E0.50996
G1 X36.264 Y13.809 E0.5263
G1 X36 Y15.084 E0.5696
G1 X35.876 Y15.861 E0.59577
G1 X35.68 Y17.339 E0.64536
G1 X35.622 Y17.889 E0.66376
G1 X35.554 Y18.832 E0.6952
G1 X35.519 Y19.636 E0.72197
G1 X35.501 Y20.916 E0.76455
G1 X35.5 Y218.158 E7.32484
G1 X35.514 Y218.809 E7.3465
G1 X35.613 Y220 E7.38625
G1 F1500 E0.88625
G0 F6000 X44.168 Y0.00
G1 F1500 E7.38625
G1 F1200 X43.838 Y0.34 E7.40201
G1 X43.242 Y0.999 E7.43156
G1 X42.938 Y1.352 E7.44706
G1 X42.414 Y1.986 E7.47441
G1 X41.636 Y3.002 E7.51697
G1 X41.37 Y3.37 E7.53208
G1 X40.903 Y4.047 E7.55943
G1 X40.648 Y4.434 E7.57485
G1 X40.21 Y5.134 E7.60231
G1 X39.563 Y6.255 E7.64536
G1 X39.342 Y6.663 E7.66079
G1 X38.955 Y7.421 E7.6891
G1 X38.759 Y7.826 E7.70406
G1 X38.412 Y8.584 E7.73179
G1 X38.227 Y9.015 E7.74739
G1 X37.946 Y9.726 E7.77282
G1 X37.461 Y11.058 E7.81997
G1 X37.291 Y11.565 E7.83775
G1 X37.092 Y12.214 E7.86033
G1 X36.763 Y13.435 E7.90239
G1 X36.653 Y13.901 E7.91831
G1 X36.392 Y15.165 E7.96124
G1 X36.271 Y15.924 E7.98681
G1 X36.077 Y17.391 E8.03602
G1 X36.02 Y17.931 E8.05408
G1 X35.953 Y18.861 E8.0851
G1 X35.919 Y19.653 E8.11146
G1 X35.901 Y20.922 E8.15367
G1 X35.9 Y218.158 E14.71377
G1 X35.913 Y218.776 E14.73433
G1 X36.015 Y220 E14.77518
G1 F1500 E8.27518
G0 F6000 X44.724 Y0.00
G1 F1500 E14.77518
G1 F1200 X44.125 Y0.618 E14.80381
G1 X43.539 Y1.267 E14.83289
G1 X43.241 Y1.613 E14.84808
G1 X42.723 Y2.241 E14.87515
G1 X41.953 Y3.245 E14.91724
G1 X41.694 Y3.604 E14.93196
G1 X41.232 Y4.274 E14.95903
G1 X40.982 Y4.654 E14.97416
G1 X40.549 Y5.346 E15.00131
G1 X39.909 Y6.455 E15.04389
G1 X39.694 Y6.853 E15.05894
G1 X39.311 Y7.603 E15.08695
G1 X39.119 Y8 E15.10162
G1 X38.776 Y8.75 E15.12905
G1 X38.594 Y9.173 E15.14436
G1 X38.318 Y9.873 E15.16939
G1 X37.837 Y11.195 E15.21618
G1 X37.67 Y11.692 E15.23362
G1 X37.474 Y12.331 E15.25585
G1 X37.149 Y13.539 E15.29745
G1 X37.042 Y13.993 E15.31297
G1 X36.784 Y15.246 E15.35552
G1 X36.666 Y15.987 E15.38047
G1 X36.474 Y17.443 E15.42932
G1 X36.418 Y17.973 E15.44705
G1 X36.352 Y18.89 E15.47762
G1 X36.319 Y19.67 E15.50359
G1 X36.301 Y20.928 E15.54544
G1 X36.3 Y218.158 E22.10533
G1 X36.313 Y218.767 E22.12559
G1 X36.41 Y219.922 E22.16414
G1 X36.425 Y220 E22.16678
G1 F1500 E15.66678
G0 F6000 X139.377 Y220
G1 F1500 E22.16678
G1 F1200 X139.426 Y219.664 E22.17808
G1 X139.486 Y218.693 E22.21044
G1 X139.499 Y217.93 E22.23582
G1 X139.5 Y164.198 E24.02295
G1 X139.528 Y161.938 E24.09812
G1 X139.628 Y159.408 E24.18234
G1 X139.798 Y156.875 E24.26678
G1 X140.034 Y154.421 E24.34877
G1 X140.353 Y151.86 E24.43461
G1 X140.729 Y149.404 E24.51725
G1 X141.181 Y146.93 E24.6009
G1 X141.696 Y144.503 E24.68342
G1 X142.296 Y142.016 E24.76851
G1 X142.956 Y139.589 E24.85216
G1 X143.688 Y137.168 E24.93628
G1 X144.486 Y134.777 E25.02012
G1 X145.342 Y132.433 E25.10312
G1 X146.278 Y130.081 E25.18731
G1 X147.259 Y127.798 E25.26996
G1 X148.331 Y125.497 E25.35439
G1 X149.457 Y123.243 E25.43819
G1 X150.663 Y120.991 E25.52316
G1 X151.902 Y118.826 E25.60612
G1 X153.2 Y116.699 E25.689
G1 X154.586 Y114.567 E25.77358
G1 X155.999 Y112.523 E25.85622
G1 X157.503 Y110.476 E25.94071
G1 X159.051 Y108.488 E26.02451
G1 X160.659 Y106.537 E26.1086
G1 X162.3 Y104.66 E26.19153
G1 X164.027 Y102.793 E26.27612
G1 X165.778 Y101.002 E26.35942
G1 X167.587 Y99.257 E26.44302
G1 X169.445 Y97.558 E26.52676
G1 X171.367 Y95.903 E26.61112
G1 X173.278 Y94.349 E26.69304
G1 X175.297 Y92.797 E26.77774
G1 X177.38 Y91.29 E26.86325
G1 X178.105 Y90.782 E26.8927
G1 X178.671 Y90.354 E26.9163
G1 X179.083 Y90.022 E26.9339
G1 X179.95 Y89.243 E26.97266
G1 X180.298 Y88.895 E26.98903
G1 X181.174 Y87.9 E27.03313
G1 X181.514 Y87.463 E27.05154
G1 X181.82 Y87.046 E27.06874
G1 X182.355 Y86.21 E27.10176
G1 X182.58 Y85.819 E27.11676
G1 X182.992 Y85.025 E27.14651
G1 X183.205 Y84.571 E27.16319
G1 X183.693 Y83.322 E27.20779
G1 X184.003 Y82.308 E27.24306
G1 X184.211 Y81.364 E27.27521
G1 X184.325 Y80.701 E27.29758
G1 X184.423 Y79.992 E27.32139
G1 X184.483 Y79.011 E27.35408
G1 X184.495 Y78.217 E27.38049
G1 X184.5 Y24.847 E29.15558
G1 X184.46 Y23.649 E29.19545
G1 X184.365 Y22.604 E29.23035
G1 X184.315 Y22.239 E29.24261
G1 X184.162 Y21.39 E29.2713
G1 X183.937 Y20.452 E29.30338
G1 X183.638 Y19.533 E29.33552
G1 X183.445 Y19.019 E29.35379
G1 X183.094 Y18.189 E29.38376
G1 X182.693 Y17.388 E29.41355
G1 X182.526 Y17.086 E29.42503
G1 X182.004 Y16.234 E29.45826
G1 X181.783 Y15.907 E29.47139
G1 X181.159 Y15.079 E29.50587
G1 X180.914 Y14.784 E29.51863
G1 X180.239 Y14.045 E29.55192
G1 X179.895 Y13.702 E29.56807
G1 X178.889 Y12.818 E29.61262
G1 X178.065 Y12.194 E29.647
G1 X177.214 Y11.649 E29.68061
G1 X176.34 Y11.158 E29.71395
G1 X175.462 Y10.752 E29.74612
G1 X174.972 Y10.551 E29.76374
G1 X173.951 Y10.194 E29.79971
G1 X173.323 Y10.012 E29.82146
G1 X172.02 Y9.724 E29.86584
G1 X171.574 Y9.655 E29.88085
G1 X170.615 Y9.552 E29.91293
G1 X167.976 Y9.396 E30.00086
G1 X165.408 Y9.177 E30.08658
G1 X162.951 Y8.9 E30.16882
G1 X160.446 Y8.545 E30.25297
G1 X157.975 Y8.123 E30.33634
G1 X155.487 Y7.626 E30.42073
G1 X153.054 Y7.067 E30.50376
G1 X150.591 Y6.429 E30.58838
G1 X148.197 Y5.734 E30.6713
G1 X145.779 Y4.959 E30.75575
G1 X143.43 Y4.133 E30.83857
G1 X141.043 Y3.213 E30.92365
G1 X138.767 Y2.263 E31.00568
G1 X136.424 Y1.207 E31.09116
G1 X134.208 Y0.131 E31.17309
G1 X133.957 Y0.00 E31.18251
G0 F6000 X133.09 Y0.00
G1 F1200 X134.033 Y0.491 E31.21787
G1 X136.25 Y1.568 E31.29985
G1 X138.603 Y2.628 E31.38569
G1 X140.899 Y3.586 E31.46843
G1 X143.29 Y4.507 E31.55365
G1 X145.657 Y5.34 E31.63711
G1 X148.078 Y6.116 E31.72167
G1 X150.479 Y6.813 E31.80482
G1 X152.964 Y7.457 E31.89021
G1 X155.397 Y8.016 E31.97324
G1 X157.901 Y8.516 E32.05816
G1 X160.39 Y8.941 E32.14215
G1 X162.895 Y9.296 E32.2263
G1 X165.374 Y9.576 E32.30927
G1 X167.942 Y9.794 E32.39499
G1 X170.572 Y9.95 E32.48262
G1 X171.531 Y10.053 E32.5147
G1 X171.934 Y10.115 E32.52826
G1 X173.237 Y10.403 E32.57264
G1 X173.819 Y10.572 E32.5928
G1 X174.82 Y10.921 E32.62806
G1 X175.294 Y11.115 E32.64509
G1 X176.144 Y11.507 E32.67623
G1 X177.018 Y11.998 E32.70957
G1 X177.824 Y12.513 E32.74138
G1 X178.648 Y13.137 E32.77576
G1 X179.613 Y13.985 E32.81849
G1 X179.944 Y14.315 E32.83403
G1 X180.606 Y15.04 E32.86669
G1 X180.851 Y15.335 E32.87944
G1 X181.452 Y16.132 E32.91264
G1 X181.663 Y16.443 E32.92514
G1 X182.176 Y17.279 E32.95777
G1 X182.335 Y17.567 E32.96871
G1 X182.736 Y18.368 E32.9985
G1 X183.071 Y19.16 E33.0271
G1 X183.258 Y19.657 E33.04476
G1 X183.548 Y20.545 E33.07583
G1 X183.768 Y21.461 E33.10717
G1 X183.919 Y22.294 E33.13532
G1 X183.967 Y22.64 E33.14694
G1 X184.06 Y23.663 E33.18111
G1 X184.1 Y24.847 E33.22051
G1 X184.095 Y78.211 E34.9954
G1 X184.084 Y78.987 E35.02122
G1 X184.027 Y79.937 E35.05287
G1 X183.931 Y80.633 E35.07624
G1 X183.82 Y81.278 E35.09801
G1 X183.62 Y82.191 E35.12909
G1 X183.32 Y83.176 E35.16334
G1 X182.832 Y84.425 E35.20794
G1 X182.637 Y84.841 E35.22322
G1 X182.233 Y85.619 E35.25238
G1 X182.008 Y86.01 E35.26738
G1 X181.498 Y86.809 E35.29891
G1 X181.198 Y87.217 E35.31575
G1 X180.858 Y87.654 E35.33417
G1 X180.015 Y88.613 E35.37664
G1 X179.683 Y88.946 E35.39228
G1 X178.832 Y89.711 E35.43034
G1 X178.43 Y90.035 E35.44751
G1 X177.875 Y90.454 E35.47064
G1 X177.15 Y90.962 E35.50008
G1 X175.062 Y92.473 E35.58581
G1 X173.034 Y94.032 E35.67089
G1 X171.106 Y95.6 E35.75354
G1 X169.184 Y97.255 E35.8379
G1 X167.309 Y98.969 E35.92239
G1 X165.5 Y100.714 E36.00599
G1 X163.733 Y102.521 E36.09005
G1 X162.006 Y104.388 E36.17464
G1 X160.35 Y106.283 E36.25834
G1 X158.735 Y108.242 E36.34279
G1 X157.187 Y110.23 E36.42659
G1 X155.677 Y112.286 E36.51143
G1 X154.257 Y114.34 E36.59449
G1 X152.865 Y116.481 E36.67942
G1 X151.555 Y118.627 E36.76305
G1 X150.31 Y120.802 E36.8464
G1 X149.104 Y123.054 E36.93137
G1 X147.973 Y125.318 E37.01554
G1 X146.897 Y127.629 E37.10033
G1 X145.906 Y129.933 E37.18375
G1 X144.97 Y132.285 E37.26794
G1 X144.11 Y134.64 E37.35133
G1 X143.305 Y137.052 E37.4359
G1 X142.573 Y139.473 E37.52003
G1 X141.91 Y141.911 E37.60406
G1 X141.307 Y144.409 E37.68953
G1 X140.79 Y146.847 E37.77242
G1 X140.336 Y149.332 E37.85644
G1 X139.956 Y151.811 E37.93986
G1 X139.637 Y154.372 E38.02569
G1 X139.4 Y156.837 E38.10806
G1 X139.228 Y159.392 E38.19323
G1 X139.128 Y161.922 E38.27744
G1 X139.1 Y164.193 E38.35298
G1 X139.099 Y217.924 E40.14008
G1 X139.087 Y218.669 E40.16487
G1 X139.03 Y219.606 E40.19609
G1 X138.972 Y220 E40.20933
G1 F1500 E33.70933
G0 F6000 X174.094 Y79.31
G0 X174.16 Y78.809
G0 X174.147 Y24.093
G0 X173.984 Y23.195
G0 X173.638 Y22.346
G0 X173.073 Y21.501
G0 X172.499 Y20.927
G0 X171.745 Y20.429
G0 X132.224 Y0.00
G1 F1500 E40.20933
G1 F1200 X133.858 Y0.851 E40.27061
G1 X136.076 Y1.929 E40.35263
G1 X138.439 Y2.993 E40.43883
G1 X140.755 Y3.959 E40.52229
G1 X143.15 Y4.881 E40.60764
G1 X145.535 Y5.721 E40.69175
G1 X147.956 Y6.497 E40.7763
G1 X150.373 Y7.198 E40.86001
G1 X152.874 Y7.847 E40.94595
G1 X155.307 Y8.406 E41.02898
G1 X157.827 Y8.909 E41.11445
G1 X160.334 Y9.337 E41.19903
G1 X162.839 Y9.692 E41.28318
G1 X165.34 Y9.975 E41.3669
G1 X167.908 Y10.192 E41.45261
G1 X170.53 Y10.348 E41.53998
G1 X171.47 Y10.448 E41.57142
G1 X171.848 Y10.506 E41.58414
G1 X173.151 Y10.794 E41.62852
G1 X173.687 Y10.95 E41.64709
G1 X174.688 Y11.299 E41.68235
G1 X175.127 Y11.478 E41.69812
G1 X175.948 Y11.856 E41.72818
G1 X176.822 Y12.347 E41.76152
G1 X177.583 Y12.832 E41.79153
G1 X178.384 Y13.438 E41.82494
G1 X179.331 Y14.269 E41.86685
G1 X179.649 Y14.585 E41.88176
G1 X180.299 Y15.296 E41.9138
G1 X180.532 Y15.576 E41.92591
G1 X181.121 Y16.357 E41.95845
G1 X181.322 Y16.652 E41.97032
G1 X181.826 Y17.472 E42.00233
G1 X181.977 Y17.746 E42.01274
G1 X182.378 Y18.547 E42.04253
G1 X182.697 Y19.301 E42.06976
G1 X182.878 Y19.781 E42.08683
G1 X183.159 Y20.639 E42.11685
G1 X183.374 Y21.533 E42.14744
G1 X183.523 Y22.35 E42.17506
G1 X183.569 Y22.676 E42.18601
G1 X183.66 Y23.677 E42.21944
G1 X183.7 Y24.847 E42.25838
G1 X183.695 Y78.205 E44.03307
G1 X183.684 Y78.981 E44.05888
G1 X183.631 Y79.882 E44.0889
G1 X183.537 Y80.565 E44.11183
G1 X183.429 Y81.193 E44.13303
G1 X183.237 Y82.075 E44.16305
G1 X182.947 Y83.03 E44.19624
G1 X182.459 Y84.279 E44.24084
G1 X182.282 Y84.657 E44.25473
G1 X181.886 Y85.419 E44.28329
G1 X181.661 Y85.81 E44.29829
G1 X181.176 Y86.572 E44.32834
G1 X180.882 Y86.972 E44.34485
G1 X180.558 Y87.39 E44.36244
G1 X179.731 Y88.331 E44.4041
G1 X179.415 Y88.649 E44.41902
G1 X178.581 Y89.4 E44.45634
G1 X178.189 Y89.716 E44.47309
G1 X177.645 Y90.126 E44.49575
G1 X176.92 Y90.634 E44.52519
G1 X174.827 Y92.149 E44.61113
G1 X172.79 Y93.715 E44.69659
G1 X170.845 Y95.297 E44.77997
G1 X168.923 Y96.952 E44.86433
G1 X167.031 Y98.681 E44.94958
G1 X165.222 Y100.426 E45.03318
G1 X163.439 Y102.249 E45.11799
G1 X161.712 Y104.116 E45.20258
G1 X160.041 Y106.029 E45.28706
G1 X158.419 Y107.996 E45.37186
G1 X156.871 Y109.984 E45.45566
G1 X155.355 Y112.049 E45.54086
G1 X153.928 Y114.113 E45.62432
G1 X152.53 Y116.263 E45.70962
G1 X151.208 Y118.428 E45.79399
G1 X149.957 Y120.613 E45.87773
G1 X148.751 Y122.865 E45.9627
G1 X147.615 Y125.139 E46.04725
G1 X146.535 Y127.46 E46.13239
G1 X145.534 Y129.785 E46.21658
G1 X144.598 Y132.137 E46.30078
G1 X143.734 Y134.503 E46.38455
G1 X142.922 Y136.936 E46.46986
G1 X142.19 Y139.357 E46.55399
G1 X141.524 Y141.806 E46.6384
G1 X140.918 Y144.315 E46.72425
G1 X140.396 Y146.775 E46.80789
G1 X139.943 Y149.26 E46.8919
G1 X139.559 Y151.762 E46.9761
G1 X139.24 Y154.323 E47.06193
G1 X139.002 Y156.799 E47.14466
G1 X138.828 Y159.376 E47.23057
G1 X138.728 Y161.906 E47.31478
G1 X138.7 Y164.188 E47.39069
G1 X138.699 Y217.918 E49.17776
G1 X138.688 Y218.645 E49.20194
G1 X138.634 Y219.547 E49.23199
G1 X138.567 Y220 E49.24722
G1 F1500 E42.74722
;MESH:try3ZebraBaseStation.stl
G0 F6000 X129.165 Y218.086
G0 X127.9 Y217.9
;TYPE:WALL-INNER
G1 F1500 E49.24722
G1 F1200 X127.9 Y82.373 E53.75487
G1 X128.026 Y82.131 E53.76395
G1 X128.152 Y82.01 E53.76976
G1 X128.436 Y81.899 E53.7799
G1 X169.479 Y81.9 E55.14499
G1 X169.789 Y81.885 E55.15532
G1 X170.104 Y81.844 E55.16588
G1 X170.452 Y81.767 E55.17774
G1 X170.795 Y81.642 E55.18988
G1 X171.075 Y81.513 E55.20013
G1 X171.387 Y81.332 E55.21213
G1 X171.677 Y81.109 E55.2243
G1 X171.903 Y80.903 E55.23447
G1 X172.109 Y80.677 E55.24464
G1 X172.332 Y80.387 E55.25681
G1 X172.522 Y80.058 E55.26944
G1 X172.673 Y79.735 E55.2813
G1 X172.78 Y79.391 E55.29328
G1 X172.844 Y79.101 E55.30316
G1 X172.896 Y78.718 E55.31602
G1 X172.899 Y24.506 E57.11911
G1 X172.887 Y24.219 E57.12867
G1 X172.844 Y23.896 E57.13951
G1 X172.767 Y23.547 E57.15139
G1 X172.643 Y23.204 E57.16352
G1 X172.514 Y22.93 E57.1736
G1 X172.332 Y22.613 E57.18575
G1 X172.109 Y22.323 E57.19792
G1 X171.903 Y22.097 E57.20809
G1 X171.677 Y21.891 E57.21826
G1 X171.387 Y21.668 E57.23043
G1 X171.004 Y21.447 E57.24514
G1 X170.666 Y21.308 E57.25729
G1 X170.382 Y21.217 E57.26721
G1 X170.104 Y21.156 E57.27668
G1 X169.718 Y21.104 E57.28963
G1 X128.461 Y21.099 E58.66185
G1 X128.137 Y20.978 E58.67335
G1 X127.991 Y20.818 E58.68055
G1 X127.902 Y20.547 E58.69004
G1 X127.882 Y19.691 E58.71852
G1 X127.829 Y18.89 E58.74522
G1 X127.741 Y18.092 E58.77192
G1 X127.618 Y17.299 E58.79861
G1 X127.462 Y16.511 E58.82533
G1 X127.272 Y15.73 E58.85206
G1 X127.047 Y14.961 E58.87871
G1 X126.792 Y14.215 E58.90493
G1 X126.496 Y13.453 E58.93212
G1 X126.173 Y12.716 E58.95889
G1 X125.817 Y11.998 E58.98554
G1 X125.43 Y11.294 E59.01226
G1 X125.013 Y10.609 E59.03894
G1 X124.568 Y9.942 E59.0656
G1 X124.093 Y9.295 E59.0923
G1 X123.59 Y8.668 E59.11904
G1 X123.06 Y8.065 E59.14574
G1 X122.505 Y7.485 E59.17244
G1 X121.935 Y6.94 E59.19867
G1 X121.321 Y6.4 E59.22586
G1 X120.695 Y5.899 E59.25253
G1 X120.053 Y5.428 E59.27901
G1 X119.391 Y4.987 E59.30547
G1 X118.692 Y4.562 E59.33268
G1 X117.989 Y4.177 E59.35934
G1 X117.27 Y3.821 E59.38602
G1 X116.547 Y3.504 E59.41228
G1 X115.785 Y3.208 E59.43947
G1 X115.024 Y2.949 E59.46621
G1 X114.269 Y2.728 E59.49237
G1 X113.489 Y2.539 E59.51906
G1 X112.688 Y2.38 E59.54623
G1 X111.906 Y2.26 E59.57254
G1 X111.095 Y2.169 E59.59968
G1 X110.295 Y2.118 E59.62634
G1 X109.489 Y2.101 E59.65316
G1 X65.511 Y2.1 E61.11587
G1 X64.706 Y2.118 E61.14265
G1 X63.89 Y2.171 E61.16985
G1 X63.094 Y2.26 E61.19649
G1 X62.312 Y2.38 E61.2228
G1 X61.511 Y2.539 E61.24997
G1 X60.731 Y2.728 E61.27666
G1 X59.976 Y2.949 E61.30282
G1 X59.215 Y3.208 E61.32956
G1 X58.453 Y3.504 E61.35675
G1 X57.73 Y3.821 E61.38301
G1 X57.01 Y4.177 E61.40972
G1 X56.294 Y4.57 E61.43689
G1 X55.609 Y4.987 E61.46356
G1 X54.948 Y5.428 E61.48999
G1 X54.3 Y5.903 E61.51671
G1 X53.668 Y6.41 E61.54366
G1 X53.065 Y6.94 E61.57036
