;FLAVOR:Marlin
;TIME:10236
;Filament used: 8.89986m
;Layer height: 0.2
;MINX:81.399
;MINY:51.179
;MINZ:0.2
;MAXX:143.844
;MAXY:174.5
;MAXZ:62
;TARGET_MACHINE.NAME:Creality Ender-5 S1
;Generated with Cura_SteamEngine 5.6.0
M140 S60
M105
M190 S60
M104 S200
M105
M109 S200
M82 ;absolute extrusion mode
M201 X500.00 Y500.00 Z100.00 E5000.00 ;Setup machine max acceleration
M203 X500.00 Y500.00 Z10.00 E50.00 ;Setup machine max feedrate
M204 P500.00 R1000.00 T500.00 ;Setup Print/Retract/Travel acceleration
M205 X8.00 Y8.00 Z0.40 E5.00 ;Setup Jerk
M220 S100 ;Reset Feedrate
M221 S100 ;Reset Flowrate

G28 ;Home

G92 E0 ;Reset Extruder
G1 Z2.0 F3000 ;Move Z Axis up
G1 X10.1 Y20 Z0.28 F5000.0 ;Move to start position
G1 X10.1 Y200.0 Z0.28 F1500.0 E15 ;Draw the first line
G1 X10.4 Y200.0 Z0.28 F5000.0 ;Move to side a little
G1 X10.4 Y20 Z0.28 F1500.0 E30 ;Draw the second line
G92 E0 ;Reset Extruder
G1 Z2.0 F3000 ;Move Z Axis up

G92 E0
G92 E0
G1 F2700 E-2
;LAYER_COUNT:310
;LAYER:0
M107
G0 F6000 X103.481 Y61.709 Z0.2
;TYPE:SKIRT
G1 F2700 E0
G1 F1200 X104.043 Y60.909 E0.03252
G1 X104.714 Y60.118 E0.06702
G1 X105.653 Y59.111 E0.11281
G1 X106.342 Y58.403 E0.14567
G1 X107.001 Y57.785 E0.17572
G1 X107.824 Y57.141 E0.21048
G1 X108.582 Y56.649 E0.24053
G1 X109.506 Y56.16 E0.2753
G1 X110.396 Y55.788 E0.30739
G1 X111.069 Y55.565 E0.33097
G1 X111.625 Y55.401 E0.35025
G1 X114.095 Y54.63 E0.43631
G1 X116.454 Y53.819 E0.51928
G1 X118.829 Y52.928 E0.60365
G1 X120.407 Y52.304 E0.66009
G1 X121.35 Y51.992 E0.69312
G1 X121.7 Y51.894 E0.70521
G1 X122.371 Y51.731 E0.72818
G1 X122.937 Y51.613 E0.74741
G1 X123.815 Y51.453 E0.77709
G1 X125.139 Y51.301 E0.82142
G1 X126.701 Y51.215 E0.87345
G1 X128.491 Y51.179 E0.93299
G1 X129.802 Y51.193 E0.9766
G1 X131.685 Y51.275 E1.03929
G1 X132.566 Y51.303 E1.06861
G1 X133.536 Y51.378 E1.10097
G1 X134.427 Y51.524 E1.131
G1 X135.379 Y51.758 E1.1636
G1 X136.308 Y52.049 E1.19598
G1 X137.209 Y52.42 E1.22839
G1 X138.071 Y52.869 E1.26072
G1 X138.834 Y53.352 E1.29075
G1 X139.671 Y53.994 E1.32583
G1 X140.504 Y54.776 E1.36384
G1 X140.737 Y55.022 E1.37511
G1 X141.377 Y55.757 E1.40752
G1 X141.948 Y56.546 E1.43991
G1 X142.447 Y57.381 E1.47227
G1 X142.842 Y58.194 E1.50233
G1 X143.322 Y59.516 E1.54911
G1 X143.416 Y59.838 E1.56027
G1 X143.63 Y60.715 E1.59029
G1 X143.786 Y61.749 E1.62507
G1 X143.844 Y62.716 E1.65729
G1 X143.827 Y63.527 E1.68427
G1 X143.702 Y65.68 E1.756
G1 X143.618 Y68.188 E1.83946
G1 X143.601 Y69.996 E1.8996
G1 X143.6 Y137.628 E4.14905
G1 X143.587 Y138.392 E4.17447
G1 X143.498 Y139.605 E4.21492
G1 X143.316 Y140.984 E4.26118
G1 X143.024 Y143.546 E4.34695
G1 X142.805 Y146.082 E4.43161
G1 X142.665 Y148.542 E4.51356
G1 X142.59 Y151.135 E4.59984
G1 X142.58 Y152.49 E4.64491
G1 X142.579 Y162.916 E4.99168
G1 X142.567 Y163.677 E5.01699
G1 X142.509 Y164.65 E5.04941
G1 X142.363 Y165.613 E5.08181
G1 X142.132 Y166.56 E5.11423
G1 X141.819 Y167.482 E5.14661
G1 X141.427 Y168.373 E5.17899
G1 X140.975 Y169.195 E5.21019
G1 X140.413 Y170.033 E5.24375
G1 X139.823 Y170.763 E5.27497
G1 X139.12 Y171.489 E5.30858
G1 X138.384 Y172.125 E5.34093
G1 X137.594 Y172.695 E5.37333
G1 X136.818 Y173.158 E5.40339
G1 X135.878 Y173.611 E5.43809
G1 X134.965 Y173.953 E5.47052
G1 X134.027 Y174.212 E5.50289
G1 X133.061 Y174.389 E5.53555
G1 X131.925 Y174.485 E5.57347
G1 X131.25 Y174.5 E5.59593
G1 X93.985 Y174.499 E6.83536
G1 X93.252 Y174.488 E6.85975
G1 X92.28 Y174.431 E6.89213
G1 X91.317 Y174.285 E6.92453
G1 X90.371 Y174.056 E6.9569
G1 X89.447 Y173.744 E6.98934
G1 X88.557 Y173.352 E7.02168
G1 X87.734 Y172.901 E7.0529
G1 X86.895 Y172.34 E7.08646
G1 X86.191 Y171.774 E7.11651
G1 X85.438 Y171.049 E7.15128
G1 X84.801 Y170.313 E7.18365
G1 X84.271 Y169.582 E7.21368
G1 X83.735 Y168.685 E7.24844
G1 X83.313 Y167.807 E7.28084
G1 X82.971 Y166.895 E7.31323
G1 X82.711 Y165.957 E7.34561
G1 X82.533 Y164.988 E7.37837
G1 X82.434 Y163.785 E7.41852
G1 X82.421 Y163.176 E7.43878
G1 X82.421 Y143.569 E8.09091
G1 X82.384 Y140.975 E8.1772
G1 X82.275 Y138.429 E8.26196
G1 X82.1 Y135.949 E8.34465
G1 X81.854 Y133.472 E8.42744
G1 X81.493 Y130.654 E8.52193
G1 X81.412 Y129.602 E8.55702
G1 X81.399 Y128.979 E8.57775
G1 X81.401 Y114.001 E9.07592
G1 X81.419 Y113.136 E9.1047
G1 X81.458 Y112.408 E9.12894
G1 X81.487 Y112.076 E9.14003
G1 X81.666 Y110.87 E9.18058
G1 X81.802 Y110.227 E9.20244
G1 X82.047 Y109.285 E9.23481
G1 X82.375 Y108.369 E9.26717
G1 X82.762 Y107.524 E9.29809
G1 X83.188 Y106.691 E9.3292
G1 X83.667 Y105.852 E9.36134
G1 X84.11 Y105.203 E9.38747
G1 X85.759 Y102.964 E9.47996
G1 X87.257 Y100.864 E9.56575
G1 X88.676 Y98.752 E9.65038
G1 X89.995 Y96.66 E9.73264
G1 X91.284 Y94.484 E9.81676
G1 X92.5 Y92.291 E9.90016
G1 X93.668 Y90.038 E9.98457
G1 X94.755 Y87.785 E10.06777
G1 X95.793 Y85.469 E10.15218
G1 X96.744 Y83.18 E10.23462
G1 X97.666 Y80.762 E10.32069
G1 X98.471 Y78.459 E10.40184
G1 X99.255 Y76.002 E10.48761
G1 X99.94 Y73.621 E10.57002
G1 X100.567 Y71.184 E10.65371
G1 X101.14 Y68.659 E10.73983
G1 X101.426 Y67.292 E10.78628
G1 X101.607 Y66.557 E10.81146
G1 X102.026 Y65.086 E10.86233
G1 X102.252 Y64.351 E10.88791
G1 X102.57 Y63.468 E10.91912
G1 X102.994 Y62.553 E10.95266
G1 X103.481 Y61.709 E10.98507
G0 F6000 X103.809 Y61.938
G1 F1200 X104.348 Y61.168 E11.01633
G1 X105.006 Y60.391 E11.0502
G1 X105.94 Y59.39 E11.09573
G1 X106.616 Y58.695 E11.12798
G1 X107.275 Y58.077 E11.15803
G1 X108.042 Y57.477 E11.19042
G1 X108.8 Y56.985 E11.22047
G1 X109.661 Y56.529 E11.25288
G1 X110.522 Y56.168 E11.28393
G1 X111.182 Y55.949 E11.30706
G1 X111.738 Y55.785 E11.32634
G1 X114.214 Y55.012 E11.41261
G1 X116.595 Y54.193 E11.49636
G1 X118.97 Y53.302 E11.58073
G1 X120.533 Y52.684 E11.63663
G1 X121.476 Y52.372 E11.66967
G1 X121.795 Y52.283 E11.68068
G1 X122.453 Y52.123 E11.7032
G1 X123.009 Y52.007 E11.7221
G1 X123.887 Y51.847 E11.75178
G1 X125.161 Y51.7 E11.79443
G1 X126.709 Y51.615 E11.846
G1 X128.487 Y51.579 E11.90515
G1 X129.785 Y51.593 E11.94832
G1 X131.668 Y51.675 E12.01101
G1 X132.536 Y51.702 E12.03989
G1 X133.471 Y51.773 E12.07108
G1 X134.362 Y51.919 E12.10111
G1 X135.26 Y52.14 E12.13187
G1 X136.156 Y52.419 E12.16308
G1 X137.025 Y52.775 E12.19432
G1 X137.857 Y53.207 E12.2255
G1 X138.62 Y53.69 E12.25553
G1 X139.397 Y54.286 E12.2881
G1 X140.214 Y55.052 E12.32535
G1 X140.436 Y55.285 E12.33605
G1 X141.053 Y55.992 E12.36726
G1 X141.605 Y56.752 E12.39851
G1 X142.087 Y57.556 E12.42968
G1 X142.482 Y58.369 E12.45975
G1 X142.938 Y59.628 E12.50428
G1 X143.027 Y59.933 E12.51485
G1 X143.241 Y60.81 E12.54488
G1 X143.387 Y61.773 E12.57727
G1 X143.444 Y62.708 E12.60843
G1 X143.428 Y63.504 E12.63491
G1 X143.302 Y65.667 E12.70697
G1 X143.218 Y68.175 E12.79044
G1 X143.201 Y69.992 E12.85087
G1 X143.2 Y137.622 E15.10025
G1 X143.188 Y138.363 E15.1249
G1 X143.101 Y139.553 E15.16459
G1 X142.92 Y140.932 E15.21085
G1 X142.625 Y143.512 E15.29722
G1 X142.407 Y146.048 E15.38188
G1 X142.265 Y148.53 E15.46456
G1 X142.19 Y151.123 E15.55084
G1 X142.18 Y152.487 E15.59621
G1 X142.179 Y162.91 E15.94288
G1 X142.168 Y163.654 E15.96763
G1 X142.113 Y164.591 E15.99885
G1 X141.974 Y165.519 E16.03006
G1 X141.753 Y166.432 E16.0613
G1 X141.453 Y167.321 E16.09251
G1 X141.076 Y168.18 E16.12371
G1 X140.624 Y169.002 E16.15491
G1 X140.101 Y169.782 E16.18614
G1 X139.535 Y170.485 E16.21616
G1 X138.858 Y171.187 E16.2486
G1 X138.15 Y171.801 E16.27977
G1 X137.389 Y172.351 E16.311
G1 X136.613 Y172.814 E16.34105
G1 X135.737 Y173.237 E16.37341
G1 X134.858 Y173.568 E16.40465
G1 X133.954 Y173.819 E16.43585
G1 X133.027 Y173.99 E16.46721
G1 X131.891 Y174.086 E16.50512
G1 X131.25 Y174.1 E16.52645
G1 X93.991 Y174.099 E17.76569
G1 X93.275 Y174.089 E17.7895
G1 X92.339 Y174.035 E17.82069
G1 X91.41 Y173.896 E17.85193
G1 X90.498 Y173.677 E17.88313
G1 X89.608 Y173.378 E17.91435
G1 X88.749 Y173.001 E17.94555
G1 X87.926 Y172.55 E17.97677
G1 X87.146 Y172.028 E18.00798
G1 X86.442 Y171.462 E18.03803
G1 X85.74 Y170.787 E18.07042
G1 X85.125 Y170.078 E18.10164
G1 X84.595 Y169.347 E18.13167
G1 X84.095 Y168.511 E18.16407
G1 X83.687 Y167.666 E18.19528
G1 X83.356 Y166.788 E18.22649
G1 X83.104 Y165.884 E18.2577
G1 X82.932 Y164.955 E18.28912
G1 X82.834 Y163.776 E18.32847
G1 X82.821 Y163.167 E18.34873
G1 X82.821 Y143.569 E19.00056
G1 X82.784 Y140.969 E19.08705
G1 X82.675 Y138.412 E19.17217
G1 X82.499 Y135.921 E19.25523
G1 X82.251 Y133.421 E19.33879
G1 X81.892 Y130.623 E19.43261
G1 X81.812 Y129.594 E19.46694
G1 X81.799 Y128.979 E19.4874
G1 X81.801 Y114.009 E19.9853
G1 X81.818 Y113.157 E20.01365
G1 X81.856 Y112.443 E20.03743
G1 X81.883 Y112.135 E20.04771
G1 X82.062 Y110.929 E20.08826
G1 X82.189 Y110.327 E20.10873
G1 X82.424 Y109.419 E20.13992
G1 X82.739 Y108.535 E20.17114
G1 X83.118 Y107.706 E20.20145
G1 X83.535 Y106.889 E20.23196
G1 X83.998 Y106.077 E20.26305
G1 X84.432 Y105.44 E20.28869
G1 X86.081 Y103.201 E20.38117
G1 X87.583 Y101.096 E20.46718
G1 X89.008 Y98.975 E20.55217
G1 X90.339 Y96.864 E20.63517
G1 X91.628 Y94.688 E20.71929
G1 X92.85 Y92.485 E20.80308
G1 X94.023 Y90.222 E20.88786
G1 X95.12 Y87.949 E20.9718
G1 X96.158 Y85.633 E21.05622
G1 X97.118 Y83.323 E21.13942
G1 X98.04 Y80.905 E21.22549
G1 X98.849 Y78.591 E21.30702
G1 X99.636 Y76.124 E21.39315
G1 X100.324 Y73.732 E21.47593
G1 X100.957 Y71.273 E21.56039
G1 X101.532 Y68.741 E21.64674
G1 X101.818 Y67.374 E21.6932
G1 X101.992 Y66.666 E21.71744
G1 X102.408 Y65.204 E21.768
G1 X102.629 Y64.486 E21.79299
G1 X102.933 Y63.636 E21.82301
G1 X103.341 Y62.752 E21.85539
G1 X103.809 Y61.938 E21.88662
G0 F6000 X104.137 Y62.167
G1 F1200 X104.654 Y61.426 E21.91668
G1 X105.298 Y60.664 E21.94986
G1 X106.227 Y59.669 E21.99514
G1 X106.89 Y58.987 E22.02677
G1 X107.549 Y58.369 E22.05682
G1 X108.26 Y57.813 E22.08684
G1 X109.018 Y57.321 E22.1169
G1 X109.816 Y56.898 E22.14694
G1 X110.648 Y56.548 E22.17696
G1 X111.295 Y56.333 E22.19963
G1 X111.851 Y56.169 E22.21891
G1 X114.333 Y55.394 E22.3054
G1 X116.736 Y54.568 E22.38991
G1 X119.111 Y53.677 E22.47428
G1 X119.988 Y53.323 E22.50573
G1 X120.659 Y53.064 E22.52966
G1 X121.602 Y52.752 E22.56269
G1 X121.89 Y52.672 E22.57263
G1 X122.535 Y52.515 E22.59471
G1 X123.081 Y52.401 E22.61327
G1 X123.959 Y52.241 E22.64295
G1 X125.183 Y52.099 E22.68393
G1 X126.717 Y52.015 E22.73503
G1 X128.483 Y51.979 E22.79378
G1 X129.768 Y51.993 E22.83652
G1 X131.651 Y52.075 E22.89921
G1 X132.506 Y52.101 E22.92766
G1 X133.406 Y52.168 E22.95768
G1 X134.297 Y52.314 E22.98771
G1 X135.142 Y52.522 E23.01665
G1 X136.005 Y52.789 E23.0467
G1 X136.841 Y53.13 E23.07673
G1 X137.643 Y53.545 E23.10676
G1 X138.406 Y54.028 E23.1368
G1 X139.123 Y54.578 E23.16685
G1 X139.94 Y55.344 E23.2041
G1 X140.135 Y55.548 E23.21349
G1 X140.73 Y56.228 E23.24354
G1 X141.262 Y56.958 E23.27358
G1 X141.727 Y57.731 E23.30359
G1 X142.122 Y58.544 E23.33365
G1 X142.554 Y59.74 E23.37594
G1 X142.638 Y60.028 E23.38592
G1 X142.852 Y60.905 E23.41595
G1 X142.988 Y61.798 E23.44599
G1 X143.044 Y62.7 E23.47605
G1 X143.029 Y63.481 E23.50203
G1 X142.902 Y65.654 E23.57443
G1 X142.818 Y68.162 E23.65789
G1 X142.801 Y69.988 E23.71863
G1 X142.8 Y137.616 E25.96794
G1 X142.789 Y138.334 E25.99183
G1 X142.704 Y139.501 E26.03074
G1 X142.524 Y140.88 E26.077
G1 X142.226 Y143.478 E26.16397
G1 X142.009 Y146.014 E26.24863
G1 X141.865 Y148.518 E26.33205
G1 X141.79 Y151.111 E26.41833
G1 X141.78 Y152.484 E26.464
G1 X141.779 Y162.904 E26.81057
G1 X141.769 Y163.631 E26.83475
G1 X141.717 Y164.533 E26.8648
G1 X141.585 Y165.426 E26.89483
G1 X141.374 Y166.305 E26.92489
G1 X141.087 Y167.161 E26.95492
G1 X140.725 Y167.988 E26.98495
G1 X140.291 Y168.78 E27.01498
G1 X139.789 Y169.531 E27.04503
G1 X139.223 Y170.234 E27.07505
G1 X138.596 Y170.885 E27.10511
G1 X137.915 Y171.477 E27.13512
G1 X137.184 Y172.007 E27.16515
G1 X136.408 Y172.47 E27.19521
G1 X135.595 Y172.863 E27.22524
G1 X134.75 Y173.183 E27.25529
G1 X133.881 Y173.426 E27.28531
G1 X132.993 Y173.591 E27.31535
G1 X131.857 Y173.687 E27.35326
G1 X131.25 Y173.7 E27.37346
G1 X93.996 Y173.699 E28.61253
G1 X93.298 Y173.69 E28.63575
G1 X92.397 Y173.639 E28.66576
G1 X91.503 Y173.507 E28.69582
G1 X90.625 Y173.298 E28.72584
G1 X89.768 Y173.011 E28.7559
G1 X88.941 Y172.65 E28.78591
G1 X88.148 Y172.217 E28.81596
G1 X87.397 Y171.716 E28.84599
G1 X86.693 Y171.15 E28.87603
G1 X86.042 Y170.524 E28.90607
G1 X85.449 Y169.843 E28.93611
G1 X84.919 Y169.112 E28.96614
G1 X84.455 Y168.337 E28.99618
G1 X84.061 Y167.524 E29.02623
G1 X83.741 Y166.68 E29.05625
G1 X83.497 Y165.81 E29.0863
G1 X83.331 Y164.922 E29.11635
G1 X83.234 Y163.767 E29.1549
G1 X83.221 Y163.158 E29.17516
G1 X83.221 Y143.569 E29.82669
G1 X83.184 Y140.963 E29.91338
G1 X83.075 Y138.395 E29.99887
G1 X82.898 Y135.893 E30.08229
G1 X82.648 Y133.37 E30.16662
G1 X82.291 Y130.592 E30.25977
G1 X82.212 Y129.585 E30.29337
G1 X82.199 Y128.979 E30.31353
G1 X82.201 Y114.017 E30.81117
G1 X82.217 Y113.178 E30.83908
G1 X82.254 Y112.478 E30.86239
G1 X82.279 Y112.194 E30.87188
G1 X82.458 Y110.988 E30.91243
G1 X82.576 Y110.427 E30.93149
G1 X82.801 Y109.553 E30.96151
G1 X83.103 Y108.701 E30.99158
G1 X83.474 Y107.888 E31.0213
G1 X83.883 Y107.087 E31.05121
G1 X84.329 Y106.302 E31.08124
G1 X84.754 Y105.677 E31.10638
G1 X86.403 Y103.438 E31.19887
G1 X87.909 Y101.328 E31.28509
G1 X89.34 Y99.198 E31.37044
G1 X90.683 Y97.068 E31.45419
G1 X91.972 Y94.892 E31.53831
G1 X93.2 Y92.679 E31.62248
G1 X94.378 Y90.406 E31.70763
G1 X95.485 Y88.113 E31.79232
G1 X96.523 Y85.797 E31.87673
G1 X97.491 Y83.466 E31.96068
G1 X98.414 Y81.048 E32.04677
G1 X99.227 Y78.723 E32.12869
G1 X100.017 Y76.245 E32.21519
G1 X100.708 Y73.843 E32.29832
G1 X101.344 Y71.373 E32.38316
G1 X101.924 Y68.823 E32.47014
G1 X102.21 Y67.456 E32.51659
G1 X102.377 Y66.775 E32.53991
G1 X102.79 Y65.322 E32.59015
G1 X103.006 Y64.621 E32.61455
G1 X103.31 Y63.771 E32.64457
G1 X103.688 Y62.951 E32.6746
G1 X104.137 Y62.167 E32.70465
G1 F2700 E30.70465
G0 F6000 X112.922 Y67.724
G1 F2700 E32.70465
G1 F1200 X114.289 Y66.283 E32.77071
G1 X116.177 Y65.753 E32.83594
G1 X118.065 Y66.283 E32.90116
G1 X119.432 Y67.724 E32.96722
G1 X119.959 Y69.532 E33.02986
G1 X119.429 Y71.424 E33.09521
G1 X118.067 Y72.786 E33.15927
G1 X116.175 Y73.316 E33.22462
G1 X114.367 Y72.787 E33.28728
G1 X112.924 Y71.344 E33.35515
G1 X112.393 Y69.534 E33.41789
G1 X112.922 Y67.724 E33.48061
G0 F6000 X113.279 Y67.928
G1 F1200 X114.503 Y66.638 E33.53976
G1 X116.177 Y66.168 E33.59759
G1 X117.851 Y66.638 E33.65542
G1 X119.075 Y67.928 E33.71456
G1 X119.543 Y69.534 E33.7702
G1 X119.072 Y71.215 E33.82827
G1 X117.858 Y72.429 E33.88537
G1 X116.178 Y72.9 E33.9434
G1 X114.578 Y72.432 E33.99885
G1 X113.279 Y71.133 E34.05995
G1 X112.81 Y69.533 E34.1154
G1 X113.279 Y67.928 E34.17102
G0 F6000 X113.636 Y68.134
G1 F1200 X114.718 Y66.993 E34.22332
G1 X116.177 Y66.584 E34.27371
G1 X117.636 Y66.993 E34.32411
G1 X118.718 Y68.134 E34.37641
G1 X119.127 Y69.537 E34.42502
G1 X118.715 Y71.006 E34.47576
G1 X117.649 Y72.072 E34.5259
G1 X116.181 Y72.484 E34.57662
G1 X114.788 Y72.076 E34.62489
G1 X113.634 Y70.922 E34.67917
G1 X113.227 Y69.532 E34.72735
G1 X113.636 Y68.134 E34.77579
G0 F6000 X113.993 Y68.338
G1 F1200 X114.932 Y67.349 E34.82115
G1 X116.177 Y66.999 E34.86417
G1 X117.422 Y67.349 E34.90718
G1 X118.361 Y68.338 E34.95254
G1 X118.711 Y69.54 E34.99418
G1 X118.359 Y70.796 E35.03756
G1 X117.439 Y71.716 E35.08084
G1 X116.184 Y72.068 E35.12419
G1 X114.999 Y71.721 E35.16526
G1 X113.988 Y70.71 E35.21281
G1 X113.644 Y69.535 E35.25353
G1 X113.993 Y68.338 E35.295
G0 F6000 X114.35 Y68.544
G1 F1200 X115.147 Y67.704 E35.33352
G1 X116.177 Y67.414 E35.36911
G1 X117.207 Y67.704 E35.4047
G1 X118.004 Y68.544 E35.44321
G1 X118.295 Y69.542 E35.47778
G1 X118.002 Y70.587 E35.51388
G1 X117.23 Y71.359 E35.55019
G1 X116.186 Y71.652 E35.58626
G1 X115.21 Y71.366 E35.62009
G1 X114.343 Y70.499 E35.66087
G1 X114.06 Y69.534 E35.69431
G1 X114.35 Y68.544 E35.72863
G0 F6000 X114.707 Y68.748
G1 F1200 X115.36 Y68.059 E35.7602
G1 X116.177 Y67.83 E35.78842
G1 X116.994 Y68.059 E35.81664
G1 X117.647 Y68.748 E35.84821
G1 X117.879 Y69.544 E35.87579
G1 X117.646 Y70.377 E35.90456
G1 X117.02 Y71.003 E35.934
G1 X116.189 Y71.236 E35.96271
G1 X115.421 Y71.011 E35.98933
G1 X114.699 Y70.289 E36.02329
G1 X114.477 Y69.534 E36.04946
G1 X114.707 Y68.748 E36.0767
