;FLAVOR:Marlin
;TIME:850
;Filament used: 0.657018m
;Layer height: 0.2
;MINX:79.85
;MINY:83.5
;MINZ:0.2
;MAXX:144.051
;MAXY:141.5
;MAXZ:9.6
;TARGET_MACHINE.NAME:Creality Ender-5 S1
;Generated with Cura_SteamEngine 5.6.0
M140 S60
M105
M190 S60
M104 S200
M105
M109 S200
M82 ;absolute extrusion mode
M201 X500.00 Y500.00 Z100.00 E5000.00 ;Setup machine max acceleration
M203 X500.00 Y500.00 Z10.00 E50.00 ;Setup machine max feedrate
M204 P500.00 R1000.00 T500.00 ;Setup Print/Retract/Travel acceleration
M205 X8.00 Y8.00 Z0.40 E5.00 ;Setup Jerk
M220 S100 ;Reset Feedrate
M221 S100 ;Reset Flowrate

G28 ;Home

G92 E0 ;Reset Extruder
G1 Z2.0 F3000 ;Move Z Axis up
G1 X10.1 Y20 Z0.28 F5000.0 ;Move to start position
G1 X10.1 Y200.0 Z0.28 F1500.0 E15 ;Draw the first line
G1 X10.4 Y200.0 Z0.28 F5000.0 ;Move to side a little
G1 X10.4 Y20 Z0.28 F1500.0 E30 ;Draw the second line
G92 E0 ;Reset Extruder
G1 Z2.0 F3000 ;Move Z Axis up

G92 E0
G92 E0
G1 F2700 E-2
;LAYER_COUNT:48
;LAYER:0
M107
G0 F6000 X83.306 Y86.513 Z0.2
;TYPE:SKIRT
G1 F2700 E0
G1 F1200 X84.042 Y85.876 E0.03237
G1 X84.774 Y85.346 E0.06243
G1 X85.671 Y84.811 E0.09717
G1 X86.549 Y84.39 E0.12956
G1 X87.462 Y84.048 E0.16198
G1 X88.399 Y83.789 E0.19432
G1 X89.366 Y83.611 E0.22702
G1 X90.505 Y83.515 E0.26504
G1 X91.162 Y83.5 E0.2869
G1 X132.354 Y83.5 E1.65695
G1 X133.234 Y83.513 E1.68622
G1 X134.206 Y83.572 E1.71861
G1 X135.169 Y83.718 E1.751
G1 X136.116 Y83.949 E1.78342
G1 X137.004 Y84.249 E1.8146
G1 X137.896 Y84.639 E1.84698
G1 X138.779 Y85.126 E1.88052
G1 X139.53 Y85.628 E1.91056
G1 X140.345 Y86.286 E1.9454
G1 X141.043 Y86.964 E1.97777
G1 X141.679 Y87.701 E2.01014
G1 X142.249 Y88.491 E2.04255
G1 X142.711 Y89.267 E2.07258
G1 X143.165 Y90.209 E2.10736
G1 X143.494 Y91.087 E2.13855
G1 X143.763 Y92.059 E2.17209
G1 X143.94 Y93.025 E2.20476
G1 X144.035 Y94.155 E2.24247
G1 X144.05 Y94.83 E2.26493
G1 X144.051 Y129.778 E3.4273
G1 X144.038 Y130.677 E3.45721
G1 X143.98 Y131.65 E3.48963
G1 X143.834 Y132.613 E3.52202
G1 X143.603 Y133.559 E3.55441
G1 X143.29 Y134.482 E3.58683
G1 X142.898 Y135.373 E3.6192
G1 X142.428 Y136.224 E3.65154
G1 X141.926 Y136.975 E3.68158
G1 X141.269 Y137.789 E3.71638
G1 X140.591 Y138.489 E3.74879
G1 X139.854 Y139.125 E3.78117
G1 X139.064 Y139.695 E3.81357
G1 X138.288 Y140.158 E3.84362
G1 X137.347 Y140.611 E3.87836
G1 X136.435 Y140.952 E3.91074
G1 X135.497 Y141.211 E3.94311
G1 X134.531 Y141.388 E3.97577
G1 X133.402 Y141.484 E4.01346
G1 X132.733 Y141.499 E4.03571
G1 X130.651 Y141.5 E4.10496
G1 X129.762 Y141.487 E4.13453
G1 X128.79 Y141.428 E4.16692
G1 X127.827 Y141.282 E4.19932
G1 X126.88 Y141.051 E4.23174
G1 X126.024 Y140.763 E4.26178
G1 X125.068 Y140.345 E4.29648
G1 X124.217 Y139.875 E4.32881
G1 X123.466 Y139.373 E4.35886
G1 X122.641 Y138.706 E4.39415
G1 X121.732 Y137.795 E4.43695
G1 X119.828 Y135.635 E4.53272
G1 X118.068 Y133.744 E4.61864
G1 X116.297 Y131.954 E4.70239
G1 X114.52 Y130.256 E4.78414
G1 X112.612 Y128.531 E4.86969
G1 X110.702 Y126.902 E4.95318
G1 X108.747 Y125.326 E5.0367
G1 X106.754 Y123.811 E5.11997
G1 X104.705 Y122.343 E5.2038
G1 X102.625 Y120.941 E5.28723
G1 X100.494 Y119.59 E5.37115
G1 X98.302 Y118.285 E5.456
G1 X96.138 Y117.077 E5.53843
G1 X93.907 Y115.915 E5.6221
G1 X91.604 Y114.797 E5.70724
G1 X89.334 Y113.774 E5.79006
G1 X86.599 Y112.634 E5.88861
G1 X85.72 Y112.219 E5.92094
G1 X84.939 Y111.764 E5.951
G1 X84.085 Y111.159 E5.98581
G1 X83.371 Y110.55 E6.01702
G1 X82.664 Y109.83 E6.05059
G1 X82.048 Y109.077 E6.08294
G1 X81.5 Y108.272 E6.11533
G1 X81.025 Y107.421 E6.14775
G1 X80.628 Y106.531 E6.18016
G1 X80.312 Y105.611 E6.21252
G1 X80.077 Y104.664 E6.24497
G1 X79.928 Y103.706 E6.27721
G1 X79.865 Y102.827 E6.30653
G1 X79.85 Y102.17 E6.32838
G1 X79.851 Y95.025 E6.56603
G1 X79.862 Y94.325 E6.58931
G1 X79.92 Y93.352 E6.62173
G1 X80.066 Y92.389 E6.65413
G1 X80.296 Y91.443 E6.68651
G1 X80.609 Y90.52 E6.71892
G1 X81.001 Y89.63 E6.75127
G1 X81.471 Y88.777 E6.78366
G1 X82.014 Y87.969 E6.81604
G1 X82.581 Y87.265 E6.84611
G1 X83.306 Y86.513 E6.88085
G0 F6000 X83.568 Y86.815
G1 F1200 X84.277 Y86.2 E6.91206
G1 X85.009 Y85.67 E6.94212
G1 X85.845 Y85.171 E6.97451
G1 X86.69 Y84.764 E7.0057
G1 X87.569 Y84.433 E7.03694
G1 X88.472 Y84.182 E7.06811
G1 X89.4 Y84.01 E7.0995
G1 X90.539 Y83.914 E7.13752
G1 X91.171 Y83.9 E7.15855
G1 X132.348 Y83.9 E8.5281
G1 X133.21 Y83.912 E8.55677
G1 X134.147 Y83.968 E8.58799
G1 X135.075 Y84.107 E8.6192
G1 X135.988 Y84.328 E8.65045
G1 X136.844 Y84.616 E8.68048
G1 X137.736 Y85.006 E8.71286
G1 X138.557 Y85.459 E8.74405
G1 X139.308 Y85.961 E8.7741
G1 X140.067 Y86.573 E8.80653
G1 X140.741 Y87.226 E8.83774
G1 X141.355 Y87.935 E8.86893
G1 X141.905 Y88.696 E8.90016
G1 X142.367 Y89.472 E8.9302
G1 X142.79 Y90.349 E8.96259
G1 X143.119 Y91.227 E8.99377
G1 X143.37 Y92.132 E9.02501
G1 X143.541 Y93.059 E9.05636
G1 X143.636 Y94.189 E9.09408
G1 X143.65 Y94.83 E9.1154
G1 X143.651 Y129.773 E10.27761
G1 X143.639 Y130.654 E10.30691
G1 X143.584 Y131.591 E10.33813
G1 X143.445 Y132.519 E10.36934
G1 X143.224 Y133.431 E10.40055
G1 X142.924 Y134.321 E10.43179
G1 X142.547 Y135.18 E10.46299
G1 X142.095 Y136.002 E10.49419
G1 X141.593 Y136.753 E10.52424
G1 X140.981 Y137.511 E10.55664
G1 X140.329 Y138.187 E10.58788
G1 X139.62 Y138.801 E10.61907
G1 X138.859 Y139.351 E10.6503
G1 X138.083 Y139.814 E10.68036
G1 X137.206 Y140.237 E10.71274
G1 X136.328 Y140.567 E10.74394
G1 X135.424 Y140.818 E10.77514
G1 X134.497 Y140.989 E10.8065
G1 X133.368 Y141.085 E10.84418
G1 X132.733 Y141.099 E10.86531
G1 X130.657 Y141.1 E10.93436
G1 X129.786 Y141.088 E10.96333
G1 X128.849 Y141.032 E10.99455
G1 X127.921 Y140.893 E11.02576
G1 X127.008 Y140.672 E11.057
G1 X126.152 Y140.384 E11.08704
G1 X125.261 Y139.994 E11.11939
G1 X124.439 Y139.542 E11.15059
G1 X123.688 Y139.04 E11.18064
G1 X122.924 Y138.423 E11.2133
G1 X122.015 Y137.512 E11.2561
G1 X120.121 Y135.362 E11.3514
G1 X118.36 Y133.472 E11.43732
G1 X116.581 Y131.673 E11.52147
G1 X114.788 Y129.959 E11.60397
G1 X112.88 Y128.234 E11.68952
G1 X110.962 Y126.598 E11.77337
G1 X108.998 Y125.015 E11.85727
G1 X106.987 Y123.486 E11.94129
G1 X104.929 Y122.011 E12.02551
G1 X102.849 Y120.609 E12.10894
G1 X100.699 Y119.246 E12.19361
G1 X98.507 Y117.941 E12.27845
G1 X96.323 Y116.722 E12.36164
G1 X94.092 Y115.56 E12.44531
G1 X91.779 Y114.437 E12.53083
G1 X89.498 Y113.409 E12.61404
G1 X86.769 Y112.272 E12.71237
G1 X85.921 Y111.873 E12.74354
G1 X85.14 Y111.418 E12.7736
G1 X84.345 Y110.855 E12.80601
G1 X83.631 Y110.246 E12.83722
G1 X82.973 Y109.576 E12.86845
G1 X82.378 Y108.851 E12.89965
G1 X81.849 Y108.076 E12.93086
G1 X81.39 Y107.257 E12.96208
G1 X81.006 Y106.4 E12.99332
G1 X80.7 Y105.514 E13.02449
G1 X80.472 Y104.602 E13.05576
G1 X80.327 Y103.677 E13.0869
G1 X80.265 Y102.818 E13.11555
G1 X80.25 Y102.17 E13.1371
G1 X80.251 Y95.031 E13.37455
G1 X80.261 Y94.348 E13.39727
G1 X80.316 Y93.411 E13.42849
G1 X80.455 Y92.483 E13.4597
G1 X80.675 Y91.571 E13.4909
G1 X80.975 Y90.681 E13.52214
G1 X81.352 Y89.822 E13.55334
G1 X81.803 Y89 E13.58452
G1 X82.326 Y88.22 E13.61576
G1 X82.893 Y87.516 E13.64582
G1 X83.568 Y86.815 E13.67819
G0 F6000 X83.831 Y87.117
G1 F1200 X84.512 Y86.524 E13.70822
G1 X85.244 Y85.994 E13.73828
G1 X86.019 Y85.531 E13.76831
G1 X86.832 Y85.138 E13.79834
G1 X87.677 Y84.818 E13.82839
G1 X88.546 Y84.575 E13.85841
G1 X89.434 Y84.409 E13.88845
G1 X90.573 Y84.313 E13.92647
G1 X91.18 Y84.3 E13.94666
G1 X132.343 Y84.3 E15.31575
G1 X133.187 Y84.311 E15.34383
G1 X134.089 Y84.364 E15.37388
G1 X134.982 Y84.496 E15.4039
G1 X135.86 Y84.707 E15.43394
G1 X136.716 Y84.995 E15.46397
G1 X137.543 Y85.357 E15.494
G1 X138.335 Y85.792 E15.52405
G1 X139.086 Y86.294 E15.5541
G1 X139.789 Y86.861 E15.58414
G1 X140.439 Y87.488 E15.61418
G1 X141.031 Y88.17 E15.64421
G1 X141.561 Y88.901 E15.67424
G1 X142.023 Y89.677 E15.70428
G1 X142.416 Y90.49 E15.73432
G1 X142.734 Y91.335 E15.76435
G1 X142.977 Y92.205 E15.79439
G1 X143.142 Y93.093 E15.82443
G1 X143.237 Y94.223 E15.86215
G1 X143.25 Y94.83 E15.88234
G1 X143.251 Y129.768 E17.04438
G1 X143.24 Y130.631 E17.07309
G1 X143.188 Y131.533 E17.10314
G1 X143.056 Y132.426 E17.13316
G1 X142.845 Y133.304 E17.1632
G1 X142.558 Y134.161 E17.19326
G1 X142.196 Y134.988 E17.22328
G1 X141.762 Y135.78 E17.25332
G1 X141.26 Y136.531 E17.28336
G1 X140.693 Y137.234 E17.3134
G1 X140.067 Y137.885 E17.34344
G1 X139.385 Y138.477 E17.37348
G1 X138.654 Y139.007 E17.40351
G1 X137.878 Y139.47 E17.43357
G1 X137.065 Y139.863 E17.4636
G1 X136.22 Y140.182 E17.49364
G1 X135.351 Y140.425 E17.52365
G1 X134.463 Y140.59 E17.55369
G1 X133.334 Y140.686 E17.59138
G1 X132.733 Y140.699 E17.61137
G1 X130.662 Y140.7 E17.68026
G1 X129.809 Y140.689 E17.70863
G1 X128.907 Y140.636 E17.73868
G1 X128.014 Y140.504 E17.7687
G1 X127.136 Y140.293 E17.79874
G1 X126.28 Y140.005 E17.82878
G1 X125.453 Y139.643 E17.8588
G1 X124.661 Y139.209 E17.88884
G1 X123.91 Y138.707 E17.91889
G1 X123.207 Y138.14 E17.94893
G1 X122.298 Y137.229 E17.99173
G1 X120.414 Y135.089 E18.08656
G1 X118.652 Y133.2 E18.17248
G1 X116.865 Y131.392 E18.25703
G1 X115.056 Y129.662 E18.34028
G1 X113.148 Y127.937 E18.42583
G1 X111.213 Y126.286 E18.51043
G1 X109.249 Y124.704 E18.59431
G1 X107.22 Y123.161 E18.67909
G1 X105.153 Y121.679 E18.76369
G1 X103.073 Y120.277 E18.84712
G1 X100.904 Y118.902 E18.93253
G1 X98.712 Y117.597 E19.01738
G1 X96.508 Y116.367 E19.10133
G1 X94.277 Y115.205 E19.18499
G1 X91.954 Y114.077 E19.27088
G1 X89.662 Y113.044 E19.3545
G1 X86.939 Y111.91 E19.45261
G1 X86.122 Y111.527 E19.48262
G1 X85.341 Y111.072 E19.51268
G1 X84.604 Y110.55 E19.54272
G1 X83.916 Y109.965 E19.57276
G1 X83.282 Y109.322 E19.60279
G1 X82.708 Y108.625 E19.63282
G1 X82.198 Y107.88 E19.66285
G1 X81.755 Y107.093 E19.69289
G1 X81.384 Y106.269 E19.72294
G1 X81.088 Y105.416 E19.75298
G1 X80.867 Y104.54 E19.78302
G1 X80.726 Y103.648 E19.81306
G1 X80.665 Y102.809 E19.84104
G1 X80.65 Y102.17 E19.8623
G1 X80.651 Y95.036 E20.09958
G1 X80.66 Y94.371 E20.1217
G1 X80.712 Y93.469 E20.15175
G1 X80.844 Y92.576 E20.18177
G1 X81.054 Y91.698 E20.2118
G1 X81.341 Y90.841 E20.24186
G1 X81.703 Y90.014 E20.27188
G1 X82.136 Y89.222 E20.3019
G1 X82.638 Y88.471 E20.33195
G1 X83.205 Y87.767 E20.36201
G1 X83.831 Y87.117 E20.39203
G1 F2700 E18.39203
;MESH:Try2LeverArm.stl
G0 F6000 X91.27 Y93.835
G0 X130.83 Y102.139
;TYPE:WALL-INNER
G1 F2700 E20.39203
G1 F1200 X130.949 Y102.5 E20.40467
G1 X130.95 Y129.9 E21.316
G1 X132.051 Y129.9 E21.35262
G1 X132.05 Y95.1 E22.51007
G1 X91.45 Y95.1 E23.86043
G1 X91.45 Y101.9 E24.0866
G1 X130.349 Y101.9 E25.38039
G1 X130.581 Y101.946 E25.38825
G1 X130.83 Y102.139 E25.39873
G0 F6000 X130.51 Y102.379
;TYPE:WALL-OUTER
G1 F1200 X130.549 Y102.5 E25.40296
G1 X130.55 Y130.3 E26.32759
G1 X132.451 Y130.3 E26.39082
G1 X132.45 Y94.7 E27.57488
G1 X91.05 Y94.7 E28.95185
G1 X91.05 Y102.3 E29.20463
G1 X130.408 Y102.3 E30.51368
G1 X130.51 Y102.379 E30.51797
G0 F6000 X130.85 Y102.379
G0 X131.122 Y129.728
G0 X131.879 Y129.728
G0 X131.696 Y129.545
;TYPE:SKIN
G1 F1227.6 X131.305 Y129.545 E30.53068
G1 F1221.4 X131.303 Y115.995 E30.97347
G1 F1206 X131.3 Y102.445 E31.42189
G1 F1200 X131.146 Y101.979 E31.43822
G1 X131.078 Y101.883 E31.44213
G1 X130.728 Y101.612 E31.45685
G1 X130.383 Y101.544 E31.46855
G1 X91.81 Y101.54 E32.75149
G1 X91.81 Y95.46 E32.95371
G1 X131.69 Y95.46 E34.28013
G1 F1209.1 X131.693 Y112.503 E34.84273
G1 F1221.4 X131.696 Y129.546 E35.39966
G1 F2700 E33.39966
G0 F6000 X131.696 Y129.8
G0 X131.951 Y95.851
G0 X131.489 Y95.851
G1 F2700 E35.39966
G1 F1200 X131.298 Y95.66 E35.40864
G0 F6000 X130.732 Y95.66
G1 F1200 X131.489 Y96.416 E35.44423
G0 F6000 X131.489 Y96.982
G1 F1200 X130.167 Y95.66 E35.50641
G0 F6000 X129.601 Y95.66
G1 F1200 X131.489 Y97.548 E35.59522
G0 F6000 X131.489 Y98.113
G1 F1200 X129.035 Y95.66 E35.71062
G0 F6000 X128.469 Y95.66
G1 F1200 X131.489 Y98.679 E35.85265
G0 F6000 X131.489 Y99.245
G1 F1200 X127.904 Y95.66 E36.02128
G0 F6000 X127.338 Y95.66
G1 F1200 X131.489 Y99.81 E36.2165
G0 F6000 X131.489 Y100.376
G1 F1200 X126.772 Y95.66 E36.43835
G0 F6000 X126.207 Y95.66
G1 F1200 X131.489 Y100.942 E36.6868
G0 F6000 X131.489 Y101.508
G1 F1200 X125.641 Y95.66 E36.96187
G0 F6000 X125.075 Y95.66
G1 F1200 X130.94 Y101.524 E37.23772
G0 F6000 X131.335 Y101.92
G1 F1200 X131.489 Y102.073 E37.24494
G0 F6000 X131.951 Y102.073
G0 X131.879 Y129.728
G0 X131.122 Y129.728
G0 X130.798 Y101.894
G0 X130.189 Y101.8
G0 X130.189 Y101.339
G1 F1200 X124.51 Y95.66 E37.51207
G0 F6000 X123.944 Y95.66
G1 F1200 X129.623 Y101.339 E37.77919
G0 F6000 X129.058 Y101.339
G1 F1200 X123.378 Y95.66 E38.04633
G0 F6000 X122.813 Y95.66
G1 F1200 X128.492 Y101.339 E38.31346
G0 F6000 X127.926 Y101.339
G1 F1200 X122.247 Y95.66 E38.58058
G0 F6000 X121.681 Y95.66
G1 F1200 X127.361 Y101.339 E38.84773
G0 F6000 X126.795 Y101.339
G1 F1200 X121.116 Y95.66 E39.11485
G0 F6000 X120.55 Y95.66
G1 F1200 X126.229 Y101.339 E39.38197
G0 F6000 X125.664 Y101.339
G1 F1200 X119.984 Y95.66 E39.64912
G0 F6000 X119.419 Y95.66
G1 F1200 X125.098 Y101.339 E39.91624
G0 F6000 X124.532 Y101.339
G1 F1200 X118.853 Y95.66 E40.18336
G0 F6000 X118.287 Y95.66
G1 F1200 X123.967 Y101.339 E40.45051
G0 F6000 X123.401 Y101.339
G1 F1200 X117.721 Y95.66 E40.71766
G0 F6000 X117.156 Y95.66
G1 F1200 X122.835 Y101.339 E40.98478
G0 F6000 X122.27 Y101.339
G1 F1200 X116.59 Y95.66 E41.25192
G0 F6000 X116.024 Y95.66
G1 F1200 X121.704 Y101.339 E41.51907
G0 F6000 X121.138 Y101.339
G1 F1200 X115.459 Y95.66 E41.78619
G0 F6000 X114.893 Y95.66
G1 F1200 X120.573 Y101.339 E42.05334
G0 F6000 X120.007 Y101.339
G1 F1200 X114.327 Y95.66 E42.32049
G0 F6000 X113.762 Y95.66
G1 F1200 X119.441 Y101.339 E42.58761
G0 F6000 X118.875 Y101.339
G1 F1200 X113.196 Y95.66 E42.85473
G0 F6000 X112.63 Y95.66
G1 F1200 X118.31 Y101.339 E43.12188
G0 F6000 X117.744 Y101.339
G1 F1200 X112.065 Y95.66 E43.389
G0 F6000 X111.498 Y95.659
G1 F1200 X117.178 Y101.339 E43.65617
G0 F6000 X116.613 Y101.339
G1 F1200 X110.933 Y95.659 E43.92334
G0 F6000 X110.367 Y95.659
G1 F1200 X116.047 Y101.339 E44.19051
G0 F6000 X115.481 Y101.339
G1 F1200 X109.801 Y95.659 E44.45768
G0 F6000 X109.235 Y95.659
G1 F1200 X114.916 Y101.339 E44.72487
G0 F6000 X114.35 Y101.339
G1 F1200 X108.67 Y95.659 E44.99204
G0 F6000 X108.104 Y95.659
G1 F1200 X113.784 Y101.339 E45.25921
G0 F6000 X113.219 Y101.339
G1 F1200 X107.538 Y95.659 E45.52641
G0 F6000 X106.973 Y95.659
G1 F1200 X112.653 Y101.339 E45.79358
G0 F6000 X112.087 Y101.339
G1 F1200 X106.407 Y95.659 E46.06075
G0 F6000 X105.841 Y95.659
G1 F1200 X111.522 Y101.339 E46.32794
G0 F6000 X110.956 Y101.339
G1 F1200 X105.276 Y95.659 E46.59511
G0 F6000 X104.71 Y95.659
G1 F1200 X110.39 Y101.339 E46.86228
G0 F6000 X109.824 Y101.339
G1 F1200 X104.144 Y95.659 E47.12945
G0 F6000 X103.579 Y95.659
G1 F1200 X109.259 Y101.339 E47.39662
G0 F6000 X108.693 Y101.339
G1 F1200 X103.013 Y95.659 E47.66379
G0 F6000 X102.447 Y95.659
G1 F1200 X108.127 Y101.339 E47.93096
G0 F6000 X107.562 Y101.339
G1 F1200 X101.882 Y95.659 E48.19813
G0 F6000 X101.316 Y95.659
G1 F1200 X106.996 Y101.339 E48.4653
G0 F6000 X106.43 Y101.339
G1 F1200 X100.75 Y95.659 E48.73247
G0 F6000 X100.185 Y95.659
G1 F1200 X105.865 Y101.339 E48.99964
G0 F6000 X105.299 Y101.339
G1 F1200 X99.619 Y95.659 E49.26681
G0 F6000 X99.053 Y95.659
G1 F1200 X104.733 Y101.339 E49.53398
G0 F6000 X104.168 Y101.339
G1 F1200 X98.487 Y95.659 E49.80117
G0 F6000 X97.922 Y95.659
G1 F1200 X103.602 Y101.339 E50.06834
G0 F6000 X103.036 Y101.339
G1 F1200 X97.356 Y95.659 E50.33551
G0 F6000 X96.79 Y95.659
G1 F1200 X102.471 Y101.339 E50.6027
G0 F6000 X101.905 Y101.339
G1 F1200 X96.225 Y95.659 E50.86987
G0 F6000 X95.659 Y95.659
G1 F1200 X101.339 Y101.339 E51.13704
G0 F6000 X100.774 Y101.339
G1 F1200 X95.093 Y95.659 E51.40424
G0 F6000 X94.528 Y95.659
G1 F1200 X100.208 Y101.339 E51.67141
G0 F6000 X99.642 Y101.339
G1 F1200 X93.962 Y95.659 E51.93858
G0 F6000 X93.396 Y95.659
G1 F1200 X99.076 Y101.339 E52.20575
G0 F6000 X98.511 Y101.339
G1 F1200 X92.831 Y95.659 E52.47291
G0 F6000 X92.265 Y95.659
G1 F1200 X97.945 Y101.339 E52.74008
G0 F6000 X97.379 Y101.339
G1 F1200 X92.01 Y95.969 E52.99265
G0 F6000 X92.01 Y96.535
G1 F1200 X96.814 Y101.339 E53.21861
G0 F6000 X96.248 Y101.339
G1 F1200 X92.01 Y97.101 E53.41796
