;FLAVOR:Marlin
;TIME:9172
;Filament used: 7.95125m
;Layer height: 0.2
;MINX:80.88
;MINY:57.654
;MINZ:0.2
;MAXX:144.999
;MAXY:169
;MAXZ:62
;TARGET_MACHINE.NAME:Creality Ender-5 S1
;Generated with Cura_SteamEngine 5.6.0
M140 S60
M105
M190 S60
M104 S200
M105
M109 S200
M82 ;absolute extrusion mode
M201 X500.00 Y500.00 Z100.00 E5000.00 ;Setup machine max acceleration
M203 X500.00 Y500.00 Z10.00 E50.00 ;Setup machine max feedrate
M204 P500.00 R1000.00 T500.00 ;Setup Print/Retract/Travel acceleration
M205 X8.00 Y8.00 Z0.40 E5.00 ;Setup Jerk
M220 S100 ;Reset Feedrate
M221 S100 ;Reset Flowrate

G28 ;Home

G92 E0 ;Reset Extruder
G1 Z2.0 F3000 ;Move Z Axis up
G1 X10.1 Y20 Z0.28 F5000.0 ;Move to start position
G1 X10.1 Y200.0 Z0.28 F1500.0 E15 ;Draw the first line
G1 X10.4 Y200.0 Z0.28 F5000.0 ;Move to side a little
G1 X10.4 Y20 Z0.28 F1500.0 E30 ;Draw the second line
G92 E0 ;Reset Extruder
G1 Z2.0 F3000 ;Move Z Axis up

G92 E0
G92 E0
G1 F2700 E-2
;LAYER_COUNT:310
;LAYER:0
M107
G0 F6000 X84.948 Y96.789 Z0.2
;TYPE:SKIRT
G1 F2700 E0
G1 F1200 X85.948 Y96.015 E0.04206
G1 X87.934 Y94.696 E0.12135
G1 X90.029 Y93.231 E0.20638
G1 X92.027 Y91.749 E0.28912
G1 X94.024 Y90.178 E0.37363
G1 X95.943 Y88.577 E0.45675
G1 X97.852 Y86.891 E0.54146
G1 X99.673 Y85.192 E0.6243
G1 X101.463 Y83.421 E0.70805
G1 X103.213 Y81.588 E0.79234
G1 X104.909 Y79.709 E0.87653
G1 X106.52 Y77.82 E0.9591
G1 X108.112 Y75.841 E1.04358
G1 X109.622 Y73.851 E1.12666
G1 X111.087 Y71.806 E1.21033
G1 X112.508 Y69.697 E1.29491
G1 X113.882 Y67.529 E1.38028
G1 X114.545 Y66.449 E1.42243
G1 X115.043 Y65.709 E1.4521
G1 X116.194 Y64.144 E1.51671
G1 X116.985 Y63.192 E1.55788
G1 X118.033 Y62.07 E1.60895
G1 X118.58 Y61.508 E1.63503
G1 X119.292 Y60.843 E1.66743
G1 X120.029 Y60.264 E1.69861
G1 X120.877 Y59.714 E1.73222
G1 X121.737 Y59.26 E1.76457
G1 X122.597 Y58.896 E1.79563
G1 X123.32 Y58.653 E1.821
G1 X124.295 Y58.367 E1.85479
G1 X125.531 Y58.032 E1.89739
G1 X126.481 Y57.822 E1.92975
G1 X127.448 Y57.694 E1.96219
G1 X128.421 Y57.654 E1.99458
G1 X129.358 Y57.697 E2.02578
G1 X130.354 Y57.831 E2.0592
G1 X131.171 Y58.012 E2.08703
G1 X132.108 Y58.258 E2.11925
G1 X133.457 Y58.647 E2.16595
G1 X134.379 Y58.963 E2.19837
G1 X135.205 Y59.328 E2.2284
G1 X136.12 Y59.833 E2.26316
G1 X136.926 Y60.38 E2.29556
G1 X137.676 Y60.992 E2.32776
G1 X138.251 Y61.544 E2.35427
G1 X139.339 Y62.677 E2.40651
G1 X139.87 Y63.254 E2.4326
G1 X140.495 Y63.999 E2.46494
G1 X141.053 Y64.798 E2.49735
G1 X141.504 Y65.581 E2.52741
G1 X141.942 Y66.527 E2.56208
G1 X142.251 Y67.382 E2.59232
G1 X142.484 Y68.134 E2.6185
G1 X142.896 Y69.592 E2.66889
G1 X143.118 Y70.542 E2.70134
G1 X143.255 Y71.517 E2.73409
G1 X143.303 Y72.756 E2.77533
G1 X143.278 Y74.156 E2.8219
G1 X143.278 Y76.752 E2.90824
G1 X143.35 Y79.274 E2.99216
G1 X143.491 Y81.773 E3.07541
G1 X143.703 Y84.286 E3.15929
G1 X143.989 Y86.796 E3.24331
G1 X144.336 Y89.237 E3.32532
G1 X144.845 Y92.193 E3.42508
G1 X144.965 Y93.159 E3.45746
G1 X144.999 Y94.062 E3.48751
G1 X144.947 Y95.088 E3.52168
G1 X144.889 Y95.58 E3.53816
G1 X144.452 Y98.644 E3.6411
G1 X144.176 Y101.101 E3.72333
G1 X143.962 Y103.639 E3.80805
G1 X143.801 Y106.563 E3.90545
G1 X143.701 Y108.188 E3.9596
G1 X143.618 Y110.688 E4.04279
G1 X143.601 Y112.496 E4.10293
G1 X143.6 Y123.897 E4.48213
G1 X143.587 Y124.661 E4.50754
G1 X143.498 Y125.874 E4.548
G1 X143.316 Y127.253 E4.59426
G1 X143.024 Y129.815 E4.68002
G1 X142.805 Y132.351 E4.76469
G1 X142.665 Y134.811 E4.84664
G1 X142.59 Y137.404 E4.93292
G1 X142.58 Y138.759 E4.97799
G1 X142.579 Y157.416 E5.59852
G1 X142.567 Y158.177 E5.62383
G1 X142.509 Y159.15 E5.65625
G1 X142.363 Y160.113 E5.68865
G1 X142.132 Y161.06 E5.72107
G1 X141.819 Y161.982 E5.75345
G1 X141.427 Y162.873 E5.78583
G1 X140.975 Y163.695 E5.81703
G1 X140.413 Y164.533 E5.85059
G1 X139.823 Y165.263 E5.88181
G1 X139.12 Y165.989 E5.91542
G1 X138.384 Y166.625 E5.94777
G1 X137.594 Y167.195 E5.98018
G1 X136.818 Y167.658 E6.01023
G1 X135.878 Y168.111 E6.04494
G1 X134.965 Y168.453 E6.07736
G1 X134.027 Y168.712 E6.10973
G1 X133.061 Y168.889 E6.14239
G1 X131.925 Y168.985 E6.18031
G1 X131.25 Y169 E6.20277
G1 X93.985 Y168.999 E7.44221
G1 X93.252 Y168.988 E7.46659
G1 X92.28 Y168.931 E7.49897
G1 X91.317 Y168.785 E7.53137
G1 X90.371 Y168.556 E7.56374
G1 X89.447 Y168.244 E7.59618
G1 X88.557 Y167.852 E7.62852
G1 X87.734 Y167.401 E7.65974
G1 X86.895 Y166.84 E7.69331
G1 X86.191 Y166.274 E7.72335
G1 X85.438 Y165.549 E7.75812
G1 X84.801 Y164.813 E7.79049
G1 X84.271 Y164.082 E7.82052
G1 X83.735 Y163.185 E7.85528
G1 X83.313 Y162.307 E7.88768
G1 X82.971 Y161.395 E7.92007
G1 X82.711 Y160.457 E7.95245
G1 X82.533 Y159.488 E7.98522
G1 X82.434 Y158.285 E8.02536
G1 X82.421 Y157.676 E8.04562
G1 X82.421 Y146.578 E8.41475
G1 X82.384 Y143.984 E8.50103
G1 X82.275 Y141.438 E8.58579
G1 X82.1 Y138.958 E8.66848
G1 X81.852 Y136.464 E8.75184
G1 X81.494 Y133.674 E8.8454
G1 X81.413 Y132.618 E8.88062
G1 X81.4 Y131.995 E8.90135
G1 X81.399 Y115.828 E9.43906
G1 X81.362 Y113.233 E9.52538
G1 X81.253 Y110.687 E9.61014
G1 X81.075 Y108.172 E9.694
G1 X80.925 Y106.574 E9.74738
G1 X80.88 Y105.6 E9.77981
G1 X80.922 Y104.628 E9.81217
G1 X81.051 Y103.655 E9.84482
G1 X81.298 Y102.582 E9.88144
G1 X81.4 Y102.228 E9.89369
G1 X81.688 Y101.372 E9.92373
G1 X82.107 Y100.416 E9.95845
G1 X82.578 Y99.562 E9.99088
G1 X83.133 Y98.743 E10.02379
G1 X84.023 Y97.689 E10.06967
G1 X84.25 Y97.453 E10.08056
G1 X84.948 Y96.789 E10.1126
G0 F6000 X85.224 Y97.079
G1 F1200 X86.192 Y96.332 E10.15327
G1 X88.163 Y95.024 E10.23195
G1 X90.258 Y93.559 E10.31698
G1 X92.265 Y92.07 E10.40009
G1 X94.28 Y90.485 E10.48536
G1 X96.208 Y88.877 E10.56886
G1 X98.117 Y87.191 E10.65358
G1 X99.946 Y85.484 E10.73679
G1 X101.744 Y83.705 E10.82091
G1 X103.51 Y81.856 E10.90596
G1 X105.206 Y79.977 E10.99014
G1 X106.832 Y78.071 E11.07347
G1 X108.424 Y76.092 E11.15795
G1 X109.941 Y74.093 E11.24141
G1 X111.419 Y72.03 E11.32582
G1 X112.84 Y69.921 E11.4104
G1 X114.22 Y67.743 E11.49616
G1 X114.877 Y66.672 E11.53795
G1 X115.365 Y65.946 E11.56704
G1 X116.502 Y64.399 E11.6309
G1 X117.277 Y63.465 E11.67127
G1 X118.319 Y62.349 E11.72205
G1 X118.854 Y61.8 E11.74755
G1 X119.539 Y61.158 E11.77877
G1 X120.276 Y60.579 E11.80994
G1 X121.064 Y60.067 E11.8412
G1 X121.893 Y59.628 E11.8724
G1 X122.724 Y59.275 E11.90243
G1 X123.433 Y59.037 E11.9273
G1 X124.4 Y58.753 E11.96082
G1 X125.618 Y58.422 E12.0028
G1 X126.534 Y58.218 E12.03402
G1 X127.465 Y58.094 E12.06526
G1 X128.403 Y58.054 E12.09648
G1 X129.34 Y58.097 E12.12768
G1 X130.268 Y58.222 E12.15882
G1 X131.07 Y58.399 E12.18614
G1 X131.997 Y58.642 E12.21801
G1 X133.328 Y59.026 E12.26409
G1 X134.217 Y59.329 E12.29533
G1 X135.043 Y59.694 E12.32536
G1 X135.896 Y60.164 E12.35776
G1 X136.673 Y60.69 E12.38896
G1 X137.399 Y61.281 E12.4201
G1 X137.974 Y61.833 E12.44661
G1 X139.045 Y62.948 E12.49803
G1 X139.564 Y63.511 E12.5235
G1 X140.167 Y64.229 E12.55469
G1 X140.706 Y64.998 E12.58592
G1 X141.157 Y65.781 E12.61597
G1 X141.566 Y66.663 E12.64831
G1 X141.869 Y67.5 E12.67792
G1 X142.099 Y68.243 E12.70379
G1 X142.507 Y69.684 E12.7536
G1 X142.722 Y70.598 E12.78483
G1 X142.855 Y71.533 E12.81624
G1 X142.903 Y72.749 E12.85671
G1 X142.878 Y74.149 E12.90329
G1 X142.878 Y76.752 E12.98986
G1 X142.95 Y79.285 E13.07414
G1 X143.092 Y81.807 E13.15816
G1 X143.305 Y84.32 E13.24204
G1 X143.593 Y86.852 E13.3268
G1 X143.942 Y89.305 E13.40921
G1 X144.448 Y92.243 E13.50836
G1 X144.565 Y93.174 E13.53957
G1 X144.599 Y94.077 E13.56963
G1 X144.55 Y95.041 E13.60173
G1 X144.493 Y95.524 E13.61791
G1 X144.056 Y98.588 E13.72085
G1 X143.777 Y101.068 E13.80385
G1 X143.564 Y103.606 E13.88857
G1 X143.448 Y105.588 E13.9546
G1 X143.402 Y106.538 E13.98623
G1 X143.301 Y108.175 E14.04078
G1 X143.218 Y110.675 E14.12398
G1 X143.201 Y112.492 E14.18442
G1 X143.2 Y123.891 E14.56355
G1 X143.188 Y124.632 E14.5882
G1 X143.101 Y125.822 E14.62788
G1 X142.92 Y127.201 E14.67414
G1 X142.625 Y129.781 E14.76051
G1 X142.407 Y132.317 E14.84517
G1 X142.265 Y134.799 E14.92786
G1 X142.19 Y137.392 E15.01414
G1 X142.18 Y138.756 E15.05951
G1 X142.179 Y157.41 E15.67994
G1 X142.168 Y158.154 E15.70469
G1 X142.113 Y159.091 E15.73591
G1 X141.974 Y160.019 E15.76712
G1 X141.753 Y160.932 E15.79836
G1 X141.453 Y161.821 E15.82957
G1 X141.076 Y162.68 E15.86077
G1 X140.624 Y163.502 E15.89197
G1 X140.101 Y164.282 E15.9232
G1 X139.535 Y164.985 E15.95322
G1 X138.858 Y165.687 E15.98566
G1 X138.15 Y166.301 E16.01683
G1 X137.389 Y166.851 E16.04806
G1 X136.613 Y167.314 E16.07811
G1 X135.737 Y167.737 E16.11047
G1 X134.858 Y168.068 E16.14171
G1 X133.954 Y168.319 E16.17291
G1 X133.027 Y168.49 E16.20426
G1 X131.891 Y168.586 E16.24218
G1 X131.25 Y168.6 E16.26351
G1 X93.991 Y168.599 E17.50275
G1 X93.275 Y168.589 E17.52656
G1 X92.339 Y168.535 E17.55775
G1 X91.41 Y168.396 E17.58899
G1 X90.498 Y168.177 E17.62018
G1 X89.608 Y167.878 E17.65141
G1 X88.749 Y167.501 E17.68261
G1 X87.926 Y167.05 E17.71383
G1 X87.146 Y166.528 E17.74504
G1 X86.442 Y165.962 E17.77509
G1 X85.74 Y165.287 E17.80748
G1 X85.125 Y164.578 E17.8387
G1 X84.595 Y163.847 E17.86873
G1 X84.095 Y163.011 E17.90113
G1 X83.687 Y162.166 E17.93234
G1 X83.356 Y161.288 E17.96354
G1 X83.104 Y160.384 E17.99476
G1 X82.932 Y159.455 E18.02618
G1 X82.834 Y158.276 E18.06553
G1 X82.821 Y157.667 E18.08579
G1 X82.821 Y146.578 E18.45461
G1 X82.784 Y143.978 E18.5411
G1 X82.675 Y141.421 E18.62622
G1 X82.499 Y138.93 E18.70928
G1 X82.25 Y136.424 E18.79304
G1 X81.893 Y133.643 E18.88629
G1 X81.813 Y132.61 E18.92075
G1 X81.8 Y131.995 E18.94121
G1 X81.799 Y115.828 E19.47893
G1 X81.762 Y113.227 E19.56545
G1 X81.653 Y110.67 E19.65057
G1 X81.474 Y108.144 E19.7348
G1 X81.325 Y106.555 E19.78788
G1 X81.28 Y105.617 E19.81911
G1 X81.319 Y104.68 E19.85031
G1 X81.441 Y103.745 E19.88167
G1 X81.688 Y102.672 E19.91829
G1 X81.779 Y102.356 E19.92923
G1 X82.067 Y101.5 E19.95927
G1 X82.457 Y100.609 E19.99161
G1 X82.91 Y99.786 E20.02286
G1 X83.439 Y99.001 E20.05434
G1 X84.312 Y97.966 E20.09938
G1 X84.526 Y97.743 E20.10966
G1 X85.224 Y97.079 E20.1417
G0 F6000 X85.468 Y97.396
G1 F1200 X86.436 Y96.649 E20.18237
G1 X88.392 Y95.352 E20.26043
G1 X90.487 Y93.887 E20.34546
G1 X92.503 Y92.391 E20.42895
G1 X94.536 Y90.792 E20.51498
G1 X96.473 Y89.177 E20.59886
G1 X98.382 Y87.491 E20.68357
G1 X100.219 Y85.776 E20.76716
G1 X102.025 Y83.989 E20.85166
G1 X103.807 Y82.124 E20.93745
G1 X105.503 Y80.245 E21.02164
G1 X107.144 Y78.322 E21.10573
G1 X108.736 Y76.343 E21.1902
G1 X110.26 Y74.335 E21.27405
G1 X111.751 Y72.254 E21.35919
G1 X113.172 Y70.145 E21.44377
G1 X114.558 Y67.957 E21.52992
G1 X115.209 Y66.895 E21.57135
G1 X115.687 Y66.183 E21.59987
G1 X116.81 Y64.654 E21.66297
G1 X117.569 Y63.738 E21.70254
G1 X118.606 Y62.628 E21.75306
G1 X119.128 Y62.091 E21.77797
G1 X119.786 Y61.472 E21.80802
G1 X120.495 Y60.914 E21.83802
G1 X121.252 Y60.42 E21.86809
G1 X122.049 Y59.996 E21.89811
G1 X122.88 Y59.643 E21.92814
G1 X123.546 Y59.421 E21.95149
G1 X124.505 Y59.139 E21.98474
G1 X125.706 Y58.812 E22.02614
G1 X126.587 Y58.614 E22.05617
G1 X127.483 Y58.494 E22.08624
G1 X128.385 Y58.454 E22.11627
G1 X129.287 Y58.494 E22.1463
G1 X130.182 Y58.613 E22.17633
G1 X130.969 Y58.786 E22.20313
G1 X131.886 Y59.026 E22.23466
G1 X133.2 Y59.405 E22.28014
G1 X134.055 Y59.695 E22.31017
G1 X134.881 Y60.06 E22.34021
G1 X135.672 Y60.496 E22.37025
G1 X136.421 Y61.001 E22.40029
G1 X137.122 Y61.57 E22.43032
G1 X137.697 Y62.122 E22.45683
G1 X138.751 Y63.219 E22.50743
G1 X139.258 Y63.769 E22.53231
G1 X139.84 Y64.459 E22.56233
G1 X140.359 Y65.198 E22.59237
G1 X140.81 Y65.981 E22.62242
G1 X141.19 Y66.8 E22.65245
G1 X141.487 Y67.618 E22.6814
G1 X141.714 Y68.352 E22.70695
G1 X142.118 Y69.776 E22.75618
G1 X142.326 Y70.655 E22.78623
G1 X142.455 Y71.549 E22.81627
G1 X142.503 Y72.742 E22.85598
G1 X142.478 Y74.142 E22.90255
G1 X142.478 Y76.752 E22.98936
G1 X142.55 Y79.296 E23.07401
G1 X142.693 Y81.841 E23.15879
G1 X142.907 Y84.354 E23.24267
G1 X143.197 Y86.908 E23.32817
G1 X143.548 Y89.373 E23.41098
G1 X144.051 Y92.294 E23.50956
G1 X144.165 Y93.189 E23.53957
G1 X144.199 Y94.092 E23.56963
G1 X144.153 Y94.994 E23.59967
G1 X144.097 Y95.468 E23.61554
G1 X143.66 Y98.532 E23.71848
G1 X143.378 Y101.035 E23.80226
G1 X143.166 Y103.573 E23.88697
G1 X143.048 Y105.569 E23.95347
G1 X143.003 Y106.513 E23.9849
G1 X142.901 Y108.162 E24.03985
G1 X142.818 Y110.662 E24.12305
G1 X142.801 Y112.488 E24.18378
G1 X142.8 Y123.885 E24.56285
G1 X142.789 Y124.603 E24.58673
G1 X142.704 Y125.77 E24.62565
G1 X142.524 Y127.149 E24.67191
G1 X142.226 Y129.747 E24.75888
G1 X142.009 Y132.283 E24.84354
G1 X141.865 Y134.787 E24.92696
G1 X141.79 Y137.38 E25.01324
G1 X141.78 Y138.753 E25.05891
G1 X141.779 Y157.404 E25.67924
G1 X141.769 Y158.131 E25.70342
G1 X141.717 Y159.033 E25.73347
G1 X141.585 Y159.926 E25.7635
G1 X141.374 Y160.805 E25.79356
G1 X141.087 Y161.661 E25.82359
G1 X140.725 Y162.488 E25.85362
G1 X140.291 Y163.28 E25.88366
G1 X139.789 Y164.031 E25.9137
G1 X139.223 Y164.734 E25.94372
G1 X138.596 Y165.385 E25.97378
G1 X137.915 Y165.977 E26.00379
G1 X137.184 Y166.507 E26.03382
G1 X136.408 Y166.97 E26.06388
G1 X135.595 Y167.363 E26.09391
G1 X134.75 Y167.683 E26.12397
G1 X133.881 Y167.926 E26.15398
G1 X132.993 Y168.091 E26.18402
G1 X131.857 Y168.187 E26.22194
G1 X131.25 Y168.2 E26.24213
G1 X93.996 Y168.199 E27.4812
G1 X93.298 Y168.19 E27.50442
G1 X92.397 Y168.139 E27.53444
G1 X91.503 Y168.007 E27.56449
G1 X90.625 Y167.798 E27.59451
G1 X89.768 Y167.511 E27.62457
G1 X88.941 Y167.15 E27.65458
G1 X88.148 Y166.717 E27.68464
G1 X87.397 Y166.216 E27.71466
G1 X86.693 Y165.65 E27.74471
G1 X86.042 Y165.024 E27.77474
G1 X85.449 Y164.343 E27.80478
G1 X84.919 Y163.612 E27.83481
G1 X84.455 Y162.837 E27.86485
G1 X84.061 Y162.024 E27.8949
G1 X83.741 Y161.18 E27.92492
G1 X83.497 Y160.31 E27.95498
G1 X83.331 Y159.422 E27.98502
G1 X83.234 Y158.267 E28.02357
G1 X83.221 Y157.658 E28.04383
G1 X83.221 Y146.578 E28.41236
G1 X83.184 Y143.972 E28.49904
G1 X83.075 Y141.404 E28.58453
G1 X82.898 Y138.902 E28.66795
G1 X82.648 Y136.384 E28.75211
G1 X82.292 Y133.612 E28.84507
G1 X82.213 Y132.601 E28.8788
G1 X82.2 Y131.995 E28.89896
G1 X82.199 Y115.828 E29.43667
G1 X82.162 Y113.221 E29.52339
G1 X82.053 Y110.653 E29.60888
G1 X81.873 Y108.116 E29.69347
G1 X81.725 Y106.535 E29.74629
G1 X81.68 Y105.633 E29.77633
G1 X81.716 Y104.731 E29.80635
G1 X81.831 Y103.835 E29.8364
G1 X82.078 Y102.762 E29.87302
G1 X82.158 Y102.484 E29.88264
G1 X82.446 Y101.628 E29.91268
G1 X82.808 Y100.801 E29.9427
G1 X83.242 Y100.009 E29.97274
G1 X83.745 Y99.259 E30.00278
G1 X84.601 Y98.243 E30.04696
G1 X84.815 Y98.02 E30.05724
G1 X85.468 Y97.396 E30.08729
G1 F2700 E28.08729
G0 F6000 X92.273 Y105.252
G1 F2700 E30.08729
G1 F1200 X92.462 Y105.198 E30.09382
G1 X92.651 Y105.252 E30.10036
G1 X92.794 Y105.401 E30.10723
G1 X92.845 Y105.582 E30.11348
G1 X92.793 Y105.773 E30.12007
G1 X92.653 Y105.913 E30.12665
G1 X92.462 Y105.966 E30.13325
G1 X92.283 Y105.913 E30.13946
G1 X92.131 Y105.761 E30.1466
G1 X92.078 Y105.581 E30.15285
G1 X92.13 Y105.401 E30.15908
G1 X92.273 Y105.252 E30.16595
G1 F2700 E28.16595
G0 F6000 X123.267 Y97.038
G1 F2700 E30.16595
G1 F1200 X123.781 Y95.285 E30.22671
G1 X125.1 Y93.892 E30.29051
G1 X126.26 Y93.567 E30.33058
G1 X126.364 Y93.497 E30.33475
G1 X126.397 Y93.433 E30.33714
G1 X126.734 Y92.339 E30.37522
G1 X128.137 Y90.891 E30.44228
G1 X128.212 Y90.846 E30.44519
G1 X130.093 Y90.318 E30.51017
G1 X131.947 Y90.838 E30.57421
G1 X133.284 Y92.25 E30.63889
G1 X133.802 Y94.024 E30.70035
G1 X133.283 Y95.879 E30.76442
G1 X131.947 Y97.216 E30.82729
G1 X130.528 Y97.612 E30.87629
G1 X130.424 Y97.682 E30.88045
G1 X130.389 Y97.751 E30.88303
G1 X130.076 Y98.867 E30.92158
G1 X128.758 Y100.185 E30.98357
G1 X126.927 Y100.698 E31.04682
G1 X125.178 Y100.186 E31.10743
G1 X123.781 Y98.789 E31.17314
G1 X123.267 Y97.038 E31.23384
G0 F6000 X123.685 Y97.038
G1 F1200 X124.138 Y95.49 E31.28748
G1 X125.315 Y94.247 E31.34442
G1 X126.368 Y93.952 E31.38079
G1 X126.564 Y93.856 E31.38805
G1 X126.712 Y93.696 E31.3953
G1 X126.779 Y93.551 E31.40061
G1 X127.088 Y92.548 E31.43552
G1 X128.38 Y91.214 E31.49729
G1 X130.093 Y90.733 E31.55646
G1 X131.732 Y91.193 E31.61308
G1 X132.927 Y92.455 E31.67089
